!!!COM: Mozart
!!!OTL: 9 Variationen uber ein Minuett von Duport
!!!Variation: Theme a
**function	**harm	**kern	**kern
*	*	*clefG2	*clefG2
*	*	*k[f#c#]	*k[f#c#]
*M3/4	*M3/4	*M3/4	*M3/4
*D:	*D:	*D:	*D
=1-	=1-	=1-	=1-
*	*	*^	*
2.T	2.I	(8f#L	2.d	2aa
.	.	8aJ	.	.
.	.	8f#L	.	.
.	.	8aJ	.	.
.	.	8f#L	.	(8dddL
.	.	8aJ	.	8aaJ
=2	=2	=2	=2	=2
2.T	2.I	8f#L	2.d	2ff#)
.	.	8aJ	.	.
.	.	8f#L	.	.
.	.	8aJ	.	.
.	.	8f#L	.	(8aaL
.	.	8aJ	.	8ff#J
=3	=3	=3	=3	=3
2D	2Cc	8f#L	2.A	4dd)
.	.	8aJ	.	.
.	.	8f#L	.	4dd
.	.	8aJ	.	.
4D	4V7	8c#L 8g	.	(8.eeL
.	.	8aJ	.	.
.	.	.	.	32ddLL
.	.	.	.	32eeJJJ
=4	=4	=4	=4	=4
2.T	2.I	4f#)	4d	4ff#
*	*	*v	*v	*
.	.	4r	4dd
.	.	4r	4a)
*-	*-	*-	*-
!!!COM: Mozart
!!!OTL: 9 Variationen uber ein Minuett von Duport
!!!Variation: Theme b
**function	**harm	**kern	**kern
*	*	*clefG2	*clefG2
*	*	*k[f#c#]	*k[f#c#]
*M3/4	*M3/4	*M3/4	*M3/4
*D:	*D:	*D:	*D
=5	=5	=5	=5
*	*	*^	*
2.T	2.I	(8f#L	2.d	2aa
.	.	8aJ	.	.
.	.	8f#L	.	.
.	.	8aJ	.	.
.	.	8f#L	.	(8.dddL
.	.	8aJ	.	.
.	.	.	.	16aaJk
=6	=6	=6	=6	=6
2.T	2.I	8f#L	2.d	2ff#)
.	.	8aJ	.	.
.	.	8f#L	.	.
.	.	8aJ	.	.
.	.	8f#L	.	(8.aaL
.	.	8aJ	.	.
.	.	.	.	16ff#Jk
=7	=7	=7	=7	=7
2D	2Cc	8f#L	2.A	4dd)
.	.	8aJ	.	.
.	.	8f#L	.	4dd
.	.	8aJ	.	.
4D	4V7	8c#L 8g	.	(8.eeL
.	.	8aJ	.	.
.	.	.	.	16ff#Jk)
=8	=8	=8	=8	=8
*	*	*v	*v	*
2.T	2.I	4f#) 4d	4dd
*	*	*clefF4	*
.	.	4A	4r
.	.	4D	4r
*-	*-	*-	*-
!!!COM: Mozart
!!!OTL: 9 Variationen uber ein Minuett von Duport
!!!Variation: Theme c
**function	**harm	**kern	**kern
*	*	*clefF4	*clefG2
*	*	*k[f#c#]	*k[f#c#]
*M3/4	*M3/4	*M3/4	*M3/4
*D:	*D:	*D:	*D
=9	=9	=9	=9
2.D	2.V	4AA 4A	4a 4cc# 4ee
.	.	4r	4a 4cc# 4ee
.	.	4r	4a 4cc# 4ee
=10	=10	=10	=10
2.D	2.V	8r	2.a 2.cc# 2.ee
.	.	(8AA	.
.	.	8C#L	.
.	.	8EJ	.
.	.	8AL	.
.	.	8AAJ	.
=11	=11	=11	=11
2.T	2.I	4D)	4a 4dd 4ff#
.	.	4r	4a 4dd 4ff#
.	.	4r	4a 4dd 4ff#
=12	=12	=12	=12
2.T	2.I	8r	2.a 2.dd 2.ff#
.	.	(8D	.
.	.	8F#L	.
.	.	8AJ	.
.	.	8dL	.
.	.	8DJ)	.
*	*	*clefG2	*
=13	=13	=13	=13
*	*	*^	*
2.T	2.I	(8f#L	2.d	4aa
.	.	8aJ	.	.
.	.	8f#L	.	(8ddL
.	.	8aJ	.	8ff#J
.	.	8f#L	.	8aaL
.	.	8aJ	.	8dddJ
=14	=14	=14	=14	=14
2.T	2.I	8f#L	2.d	4aa)
.	.	8aJ	.	.
.	.	8f#L	.	(8ddL
.	.	8aJ	.	8ff#J
.	.	8f#L	.	8aaL
.	.	8aJ	.	8dddJ
*	*	*v	*v	*
=15	=15	=15	=15
4T	4I	8dL 8f#	4aa
.	.	8aJ	.
4T	4V7b	8c#L 8e	4gg
.	.	8aJ	.
4T	4I	8dL 8f#	4ff#)
.	.	8aJ)	.
=16	=16	=16	=16
.	.	.	(q64ff#
4D	4V	4A 4c#	4ee)
*-	*-	*-	*-
!!!COM: Mozart
!!!OTL: 9 Variationen uber ein Minuett von Duport
!!!Variation: Theme d
**function	**harm	**kern	**kern
*	*	*clefG2	*clefG2
*	*	*k[f#c#]	*k[f#c#]
*M3/4	*M3/4	*M3/4	*M3/4
*D:	*D:	*D:	*D
2T	2V	4r	(8a'L
.	.	.	8a'J
.	.	4r	8a'L
.	.	.	8a'J)
=17	=17	=17	=17
*	*	*^	*
2.T	2.I	(8f#L	2.d	2aa
.	.	8aJ	.	.
.	.	8f#L	.	.
.	.	8aJ	.	.
.	.	8f#L	.	(8.dddL
.	.	8aJ	.	.
.	.	.	.	16aaJk
=18	=18	=18	=18	=18
2.T	2.I	8f#L	2.d	2ff#)
.	.	8aJ	.	.
.	.	8f#L	.	.
.	.	8aJ	.	.
.	.	8f#L	.	(8.aaL
.	.	8aJ	.	.
.	.	.	.	16ff#Jk
=19	=19	=19	=19	=19
2D	2Cc	8f#L	2.A	4dd)
.	.	8aJ	.	.
.	.	8f#L	.	4dd
.	.	8aJ	.	.
4D	4V7	8c#L 8g	.	(8.eeL
.	.	8aJ	.	.
.	.	.	.	32ddLL
.	.	.	.	32eeJJJ
=20	=20	=20	=20	=20
2.T	2.I	4f#)	4d	4ff#
*	*	*v	*v	*
.	.	4r	4dd
.	.	4r	4a)
*-	*-	*-	*-
!!!COM: Mozart
!!!OTL: 9 Variationen uber ein Minuett von Duport
!!!Variation: Theme e
**function	**harm	**kern	**kern
*	*	*clefG2	*clefG2
*	*	*k[f#c#]	*k[f#c#]
*M3/4	*M3/4	*M3/4	*M3/4
*D:	*D:	*D:	*D
=21	=21	=21	=21
*	*	*^	*
2.T	2.I	(8f#L	2.d	(2aa
.	.	8aJ	.	.
.	.	8f#L	.	.
.	.	8aJ	.	.
.	.	8f#L	.	16dddLL
.	.	.	.	16ccc#
.	.	8aJ	.	16ddd
.	.	.	.	16aaJJ
=22	=22	=22	=22	=22
2.T	2.I	8f#L	2.d	2ff#
.	.	8aJ	.	.
.	.	8f#L	.	.
.	.	8aJ	.	.
.	.	8f#L	.	16aaLL
.	.	.	.	16gg#
.	.	8aJ	.	16aa
.	.	.	.	16ff#JJ)
=23	=23	=23	=23	=23
2D	2Cc	8f#L	2.A	4dd
.	.	8aJ	.	.
.	.	8f#L	.	4dd
.	.	8aJ	.	.
4D	4V7	8c#L 8g	.	(16eeLL
.	.	.	.	16dd
.	.	8aJ	.	16ee
.	.	.	.	16ff#JJ)
=24	=24	=24	=24	=24
*	*	*v	*v	*
2.T	2.I	4f#) 4d	4dd
*	*	*clefF4	*
.	.	4A	4r
.	.	4D	4r
*-	*-	*-	*-
!!!COM: Mozart
!!!OTL: 9 Variationen uber ein Minuett von Duport
!!!Variation: Variation 1 a
**function	**harm	**kern	**kern
*	*	*clefG2	*clefG2
*	*	*k[f#c#]	*k[f#c#]
*M3/4	*M3/4	*M3/4	*M3/4
*D:	*D:	*D:	*D
=25	=25	=25	=25
*	*	*^	*
2.T	2.I	(8f#L	2.d	16bbLL
.	.	.	.	16aa
.	.	8aJ	.	16gg#
.	.	.	.	16aaJJ
.	.	8f#L	.	16gg#LL
.	.	.	.	16aa
.	.	8aJ	.	16gg#
.	.	.	.	16aaJJ
.	.	8f#L	.	16bbLL
.	.	.	.	16aa
.	.	8aJ	.	16ddd
.	.	.	.	16aaJJ
=26	=26	=26	=26	=26
2.T	2.I	8f#L	2.d	16ggLL
.	.	.	.	16ff#
.	.	8aJ	.	16ee#
.	.	.	.	16ff#JJ
.	.	8f#L	.	16ee#LL
.	.	.	.	16ff#
.	.	8aJ	.	16ee#
.	.	.	.	16ff#JJ
.	.	8f#L	.	16aaLL
.	.	.	.	16ff#
.	.	8aJ	.	16ee#
.	.	.	.	16ff#JJ
=27	=27	=27	=27	=27
2D	2Cc	8f#L	2.A	16eeLL
.	.	.	.	16dd
.	.	8aJ	.	16cc#
.	.	.	.	16ddJJ
.	.	8f#L	.	16eeLL
.	.	.	.	16dd
.	.	8aJ	.	16cc#
.	.	.	.	16ddJJ
4D	4V7	8c#L 8g	.	16ff#LL
.	.	.	.	16ee
.	.	8aJ	.	16dd#
.	.	.	.	16eeJJ
=28	=28	=28	=28	=28
2.T	2.I	4f#)	4d	16ff#LL
.	.	.	.	16dd
.	.	.	.	16cc#
.	.	.	.	16eeJJ
*	*	*v	*v	*
.	.	4r	16ddLL
.	.	.	16ff#
.	.	.	16ee
.	.	.	16ggJJ
.	.	4r	16ff#LL
.	.	.	16aa
.	.	.	16gg
.	.	.	16bbJJ
*-	*-	*-	*-
!!!COM: Mozart
!!!OTL: 9 Variationen uber ein Minuett von Duport
!!!Variation: Variation 1 b
**function	**harm	**kern	**kern
*	*	*clefG2	*clefG2
*	*	*k[f#c#]	*k[f#c#]
*M3/4	*M3/4	*M3/4	*M3/4
*D:	*D:	*D:	*D
=29	=29	=29	=29
*	*	*^	*
2.T	2.I	(8f#L	2.d	16gg#LL
.	.	.	.	16aa
.	.	8aJ	.	16bb
.	.	.	.	16aaJJ
.	.	8f#L	.	16bbLL
.	.	.	.	16aa
.	.	8aJ	.	16bb
.	.	.	.	16aaJJ
.	.	8f#L	.	16gg#LL
.	.	.	.	16aa
.	.	8aJ	.	16ddd
.	.	.	.	16aaJJ
=30	=30	=30	=30	=30
2.T	2.I	8f#L	2.d	16ee#LL
.	.	.	.	16ff#
.	.	8aJ	.	16gg
.	.	.	.	16ff#JJ
.	.	8f#L	.	16ggLL
.	.	.	.	16ff#
.	.	8aJ	.	16gg
.	.	.	.	16ff#JJ
.	.	8f#L	.	16ee#LL
.	.	.	.	16ff#
.	.	8aJ	.	16aa
.	.	.	.	16ff#JJ
=31	=31	=31	=31	=31
2D	2Cc	8f#L	2.A	16cc#LL
.	.	.	.	16dd
.	.	8aJ	.	16ee
.	.	.	.	16ddJJ
.	.	8f#L	.	16cc#LL
.	.	.	.	16dd
.	.	8aJ	.	16ee
.	.	.	.	16ddJJ
4D	4V7	8c#L 8g	.	16dd#LL
.	.	.	.	16ee
.	.	8aJ	.	16ff#
.	.	.	.	16eeJJ
=32	=32	=32	=32	=32
2.T	2.I	4f#)	4d	16eeLL
.	.	.	.	16dd
.	.	.	.	16cc#
.	.	.	.	16bJJ
*	*	*v	*v	*
.	.	4r	16aLL
.	.	.	16g
.	.	.	16f#
.	.	.	16eJJ
.	.	4r	4d
*-	*-	*-	*-
!!!COM: Mozart
!!!OTL: 9 Variationen uber ein Minuett von Duport
!!!Variation: Variation 1 c
**function	**harm	**kern	**kern
*	*	*clefG2	*clefG2
*	*	*k[f#c#]	*k[f#c#]
*M3/4	*M3/4	*M3/4	*M3/4
*D:	*D:	*D:	*D
=33	=33	=33	=33
*	*	*^	*
2D	2V	8r	2.A	16eeLL
.	.	.	.	16cc#
.	.	(8e	.	16a
.	.	.	.	16cc#JJ
.	.	8c#L	.	16eeLL
.	.	.	.	16cc#
.	.	8eJ	.	16gg
.	.	.	.	16eeJJ
4D	4Ic	8dL	.	16ff#LL
.	.	.	.	16dd
.	.	8f#J)	.	16aa
.	.	.	.	16ff#JJ
=34	=34	=34	=34	=34
2.D	2.V	4e	4A	16ggLL
.	.	.	.	16ee
.	.	.	.	16ccc#
.	.	.	.	16ggJJ
.	.	4r	4r	16eeeLL
.	.	.	.	16ddd
.	.	.	.	16ccc#
.	.	.	.	16bbJJ
.	.	4r	4r	16aaLL
.	.	.	.	16gg
.	.	.	.	16ff#
.	.	.	.	16eeJJ
=35	=35	=35	=35	=35
2T	2I	8r	2.d	16ff#LL
.	.	.	.	16dd
.	.	(8f#	.	16a
.	.	.	.	16ddJJ
.	.	8aL	.	16ff#LL
.	.	.	.	16dd
.	.	8f#J	.	16aa
.	.	.	.	16ff#JJ
4T	4ii7d	8eL	.	16ggLL
.	.	.	.	16ee
.	.	8gJ)	.	16bb
.	.	.	.	16ggJJ
=36	=36	=36	=36	=36
2.T	2.I	4f#	4d	16aaLL
.	.	.	.	16ff#
.	.	.	.	16dd
.	.	.	.	16cc#JJ
.	.	4r	4r	16eeLL
.	.	.	.	16dd
.	.	.	.	16ff#
.	.	.	.	16eeJJ
.	.	4r	4r	16ggLL
.	.	.	.	16ff#
.	.	.	.	16aa
.	.	.	.	16ggJJ
=37	=37	=37	=37	=37
2T	2I	8r	2.d	16bbLL
.	.	.	.	16aa
.	.	(8f#	.	16gg
.	.	.	.	16ff#JJ
.	.	8aL	.	16eeLL
.	.	.	.	16dd
.	.	8f#J	.	16cc#
.	.	.	.	16ddJJ
4T	4IVc	8gL	.	16bbLL
.	.	.	.	16ccc#
.	.	8bJ)	.	16ddd
.	.	.	.	16bbJJ
=38	=38	=38	=38	=38
2T	2I	8r	2.d	16gg#LL
.	.	.	.	16aa
.	.	(8f#	.	16bb
.	.	.	.	16aaJJ
.	.	8aL	.	16ggLL
.	.	.	.	16ff#
.	.	8f#J	.	16ee
.	.	.	.	16ddJJ
4T	4IVc	8gL	.	16bbLL
.	.	.	.	16ccc#
.	.	8bJ	.	16ddd
.	.	.	.	16bbJJ
=39	=39	=39	=39	=39
4T	4I	8f#L	4d	16bbLL
.	.	.	.	16aa
.	.	8aJ	.	16ddd
.	.	.	.	16aaJJ
4T	4V7b	8eL	4c#	16aaLL
.	.	.	.	16gg
.	.	8aJ	.	16eee
.	.	.	.	16ggJJ
4T	4I	8f#L	4d	16ggLL
.	.	.	.	16ff#
.	.	8aJ)	.	16ddd
.	.	.	.	16ff#JJ
=40	=40	=40	=40	=40
2.D	2.V	4c#	4A	16ff#LL
.	.	.	.	16ee
.	.	.	.	16dd#
.	.	.	.	16eeJJ
*	*	*v	*v	*
.	.	4r	16ddLL
.	.	.	16cc#
.	.	.	16b#
.	.	.	16cc#JJ
.	.	4r	16bLL
.	.	.	16a
.	.	.	16g#
.	.	.	16aJJ
*-	*-	*-	*-
!!!COM: Mozart
!!!OTL: 9 Variationen uber ein Minuett von Duport
!!!Variation: Variation 1 d
**function	**harm	**kern	**kern
*	*	*clefG2	*clefG2
*	*	*k[f#c#]	*k[f#c#]
*M3/4	*M3/4	*M3/4	*M3/4
*D:	*D:	*D:	*D
=41	=41	=41	=41
*	*	*^	*
2.T	2.I	(8f#L	2.d	16bbLL
.	.	.	.	16aa
.	.	8aJ	.	16gg#
.	.	.	.	16aaJJ
.	.	8f#L	.	16gg#LL
.	.	.	.	16aa
.	.	8aJ	.	16gg#
.	.	.	.	16aaJJ
.	.	8f#L	.	16bbLL
.	.	.	.	16aa
.	.	8aJ	.	16ddd
.	.	.	.	16aaJJ
=42	=42	=42	=42	=42
2.T	2.I	8f#L	2.d	16ggLL
.	.	.	.	16ff#
.	.	8aJ	.	16ee#
.	.	.	.	16ff#JJ
.	.	8f#L	.	16ee#LL
.	.	.	.	16ff#
.	.	8aJ	.	16ee#
.	.	.	.	16ff#JJ
.	.	8f#L	.	16aaLL
.	.	.	.	16ff#
.	.	8aJ	.	16ee#
.	.	.	.	16ff#JJ
=43	=43	=43	=43	=43
2D	2Cc	8f#L	2.A	16eeLL
.	.	.	.	16dd
.	.	8aJ	.	16cc#
.	.	.	.	16ddJJ
.	.	8f#L	.	16eeLL
.	.	.	.	16dd
.	.	8aJ	.	16cc#
.	.	.	.	16ddJJ
4D	4V7	8c#L 8g	.	16ff#LL
.	.	.	.	16ee
.	.	8aJ	.	16dd#
.	.	.	.	16eeJJ
=44	=44	=44	=44	=44
2.T	2.I	4f#)	4d	16ff#LL
.	.	.	.	16dd
.	.	.	.	16cc#
.	.	.	.	16eeJJ
*	*	*v	*v	*
.	.	4r	16ddLL
.	.	.	16ff#
.	.	.	16ee
.	.	.	16ggJJ
.	.	4r	16ff#LL
.	.	.	16aa
.	.	.	16gg
.	.	.	16bbJJ
*-	*-	*-	*-
!!!COM: Mozart
!!!OTL: 9 Variationen uber ein Minuett von Duport
!!!Variation: Variation 1 e
**function	**harm	**kern	**kern
*	*	*clefG2	*clefG2
*	*	*k[f#c#]	*k[f#c#]
*M3/4	*M3/4	*M3/4	*M3/4
*D:	*D:	*D:	*D
=45	=45	=45	=45
*	*	*^	*
2.T	2.I	(8f#L	2.d	16gg#LL
.	.	.	.	16aa
.	.	8aJ	.	16bb
.	.	.	.	16aaJJ
.	.	8f#L	.	16bbLL
.	.	.	.	16aa
.	.	8aJ	.	16bb
.	.	.	.	16aaJJ
.	.	8f#L	.	16gg#LL
.	.	.	.	16aa
.	.	8aJ	.	16ddd
.	.	.	.	16aaJJ
=46	=46	=46	=46	=46
2.T	2.I	8f#L	2.d	16ee#LL
.	.	.	.	16ff#
.	.	8aJ	.	16gg
.	.	.	.	16ff#JJ
.	.	8f#L	.	16ggLL
.	.	.	.	16ff#
.	.	8aJ	.	16gg
.	.	.	.	16ff#JJ
.	.	8f#L	.	16ee#LL
.	.	.	.	16ff#
.	.	8aJ	.	16aa
.	.	.	.	16ff#JJ
=47	=47	=47	=47	=47
2D	2Cc	8f#L	2.A	16cc#LL
.	.	.	.	16dd
.	.	8aJ	.	16ee
.	.	.	.	16ddJJ
.	.	8f#L	.	16cc#LL
.	.	.	.	16dd
.	.	8aJ	.	16ee
.	.	.	.	16ddJJ
4D	4V7	8c#L 8g	.	16dd#LL
.	.	.	.	16ee
.	.	8aJ	.	16ff#
.	.	.	.	16eeJJ
=48	=48	=48	=48	=48
2.T	2.I	4f#)	4d	16eeLL
.	.	.	.	16dd
.	.	.	.	16cc#
.	.	.	.	16bJJ
*	*	*v	*v	*
.	.	4r	16aLL
.	.	.	16g
.	.	.	16f#
.	.	.	16eJJ
.	.	4r	4d
*-	*-	*-	*-
!!!COM: Mozart
!!!OTL: 9 Variationen uber ein Minuett von Duport
!!!Variation: Variation 2 a
**function	**harm	**kern	**kern
*	*	*clefF4	*clefG2
*	*	*k[f#c#]	*k[f#c#]
*M3/4	*M3/4	*M3/4	*M3/4
*D:	*D:	*D:	*D
=49	=49	=49	=49
2.T	2.I	16DLL	(2dd 2ff# 2aa
.	.	16d	.
.	.	16c#	.
.	.	16dJJ	.
.	.	16eLL	.
.	.	16d	.
.	.	16c#	.
.	.	16dJJ	.
.	.	16ALL	8ddd)
.	.	16d	.
.	.	16F#	8r
.	.	16AJJ	.
=50	=50	=50	=50
2.T	2.I	16DLL	(2a 2dd 2ff#
.	.	16d	.
.	.	16c#	.
.	.	16dJJ	.
.	.	16eLL	.
.	.	16d	.
.	.	16c#	.
.	.	16dJJ	.
.	.	16ALL	8aa)
.	.	16d	.
.	.	16F#	8r
.	.	16AJJ	.
=51	=51	=51	=51
4T	4vi	16BBLL	8f# 8b 8dd
.	.	16D	.
.	.	16F#	8r
.	.	16BJJ	.
4P	4ii7b	16GGLL	8b 8dd 8ee
.	.	16BB	.
.	.	16E	8r
.	.	16GJJ	.
4D	4V7	16AALL	8a 8cc# 8ee 8gg
.	.	16C#	.
.	.	16E	8r
.	.	16AJJ	.
=52	=52	=52	=52
2.T	2.I	4D	(16ff#LL
.	.	.	16dd
.	.	.	16cc#
.	.	.	16eeJJ
.	.	4r	16ddLL
.	.	.	16ff#
.	.	.	16ee
.	.	.	16ggJJ
.	.	4r	16ff#LL
.	.	.	16aa
.	.	.	16gg
.	.	.	16bbJJ)
*-	*-	*-	*-
!!!COM: Mozart
!!!OTL: 9 Variationen uber ein Minuett von Duport
!!!Variation: Variation 2 b
**function	**harm	**kern	**kern
*	*	*clefF4	*clefG2
*	*	*k[f#c#]	*k[f#c#]
*M3/4	*M3/4	*M3/4	*M3/4
*D:	*D:	*D:	*D
=53	=53	=53	=53
2.T	2.I	16DLL	(2dd 2ff# 2aa
.	.	16d	.
.	.	16c#	.
.	.	16dJJ	.
.	.	16eLL	.
.	.	16d	.
.	.	16c#	.
.	.	16dJJ	.
.	.	16ALL	8ddd)
.	.	16d	.
.	.	16F#	8r
.	.	16AJJ	.
=54	=54	=54	=54
2.T	2.I	16DLL	(2a 2dd 2ff#
.	.	16d	.
.	.	16c#	.
.	.	16dJJ	.
.	.	16eLL	.
.	.	16d	.
.	.	16c#	.
.	.	16dJJ	.
.	.	16ALL	8aa)
.	.	16d	.
.	.	16F#	8r
.	.	16AJJ	.
=55	=55	=55	=55
4T	4vi	16BBLL	8f# 8b 8dd
.	.	16D	.
.	.	16F#	8r
.	.	16BJJ	.
4P	4ii7b	16GGLL	8g 8b 8ee
.	.	16BB	.
.	.	16E	8r
.	.	16GJJ	.
4D	4V7	16AALL	8e 8g 8a 8cc#
.	.	16C#	.
.	.	16E	8r
.	.	16AJJ	.
=56	=56	=56	=56
2.T	2.I	16DDLL	4d 4f# 4a 4dd
.	.	16D	.
.	.	16F#	.
.	.	16DJJ	.
.	.	16AALL	4r
.	.	16D	.
.	.	16FF#	.
.	.	16AAJJ	.
.	.	8DD	4r
.	.	8r	.
*-	*-	*-	*-
!!!COM: Mozart
!!!OTL: 9 Variationen uber ein Minuett von Duport
!!!Variation: Variation 2 c
**function	**harm	**kern	**kern
*	*	*clefF4	*clefG2
*	*	*k[f#c#]	*k[f#c#]
*M3/4	*M3/4	*M3/4	*M3/4
*D:	*D:	*D:	*D
=57	=57	=57	=57
2.D	2.V	16r	4a 4cc# 4ee
.	.	16AA'LL	.
.	.	16BB'	.
.	.	16C#'JJ	.
.	.	16D'LL	4a 4cc# 4ee
.	.	16E'	.
.	.	16F#'	.
.	.	16G#'JJ	.
.	.	16A'LL	4a 4cc# 4ee
.	.	16B'	.
.	.	16c#'	.
.	.	16d'JJ	.
=58	=58	=58	=58
2.D	2.V7	(16eLL	[4.cc# [4.ee
.	.	16d	.
.	.	16c#	.
.	.	16BJJ	.
.	.	16ALL	.
.	.	16G	.
.	.	16F#	16cc#LL] 16ee]
.	.	16EJJ	16ddJJ 16ff#
.	.	16DLL	8ee 8gg
.	.	16C#	.
.	.	16BB	8r
.	.	16AAJJ)	.
=59	=59	=59	=59
2.T	2.I	16r	4a 4dd 4ff#
.	.	16D'LL	.
.	.	16E'	.
.	.	16F#'JJ	.
.	.	16G'LL	4a 4dd 4ff#
.	.	16A'	.
.	.	16B'	.
.	.	16c#'JJ	.
.	.	16d'LL	4a 4dd 4ff#
.	.	16e'	.
.	.	16f#'	.
.	.	16g'JJ	.
=60	=60	=60	=60
2.T	2.I	(16aLL	[4.dd [4.ff#
.	.	16g	.
.	.	16f#	.
.	.	16eJJ	.
.	.	16dLL	.
.	.	16c#	.
.	.	16B	16ddLL] 16ff#]
.	.	16AJJ	16eeJJ 16gg
.	.	16GLL	8ff# 8aa
.	.	16F#	.
.	.	16E	8r
.	.	16DJJ)	.
=61	=61	=61	=61
2.T	2.I	16r	(4ddd
.	.	16dLL	.
.	.	16c#	.
.	.	16dJJ	.
.	.	16cLL	8ff#L)
.	.	16d	.
.	.	16B	8gg'J
.	.	16dJJ	.
.	.	16ALL	8aa'L
.	.	16d	.
.	.	16G	8bb'J
.	.	16dJJ	.
=62	=62	=62	=62
2.T	2.Ib	16F#LL	(8.aaL
.	.	16d	.
.	.	16c#	.
.	.	16dJJ	16dddJk
.	.	16cLL	8ff#L)
.	.	16d	.
.	.	16B	(8ggJ
.	.	16dJJ	.
.	.	16ALL	8aa'L)
.	.	16d	.
.	.	16G	8bb'J
.	.	16dJJ	.
=63	=63	=63	=63
4T	4Ib	16F#LL	(8bbL
.	.	16d	.
.	.	16A	16aaJk)
.	.	16dJJ	16r
4T	4V7c	16ELL	(8aaL
.	.	16c#	.
.	.	16A	16ggJk)
.	.	16c#JJ	16r
4T	4I	16DLL	(8ggL
.	.	16d	.
.	.	16A	16ff#Jk)
.	.	16dJJ	16r
=64	=64	=64	=64
2.D	2.V	4A 4c#	(16eeLL
.	.	.	16a
.	.	.	16b
.	.	.	16ccJJ
.	.	4r	16cc#LL
.	.	.	16dd
.	.	.	16dd#
.	.	.	16eeJJ
.	.	4r	16ee#LL
.	.	.	16ff#
.	.	.	16gg
.	.	.	16gg#JJ)
*-	*-	*-	*-
!!!COM: Mozart
!!!OTL: 9 Variationen uber ein Minuett von Duport
!!!Variation: Variation 2 d
**function	**harm	**kern	**kern
*	*	*clefF4	*clefG2
*	*	*k[f#c#]	*k[f#c#]
*M3/4	*M3/4	*M3/4	*M3/4
*D:	*D:	*D:	*D
=65	=65	=65	=65
2.T	2.I	16DLL	(2dd 2ff# 2aa
.	.	16d	.
.	.	16c#	.
.	.	16dJJ	.
.	.	16eLL	.
.	.	16d	.
.	.	16c#	.
.	.	16dJJ	.
.	.	16ALL	8ddd)
.	.	16d	.
.	.	16F#	8r
.	.	16AJJ	.
=66	=66	=66	=66
2.T	2.I	16DLL	(2a 2dd 2ff#
.	.	16d	.
.	.	16c#	.
.	.	16dJJ	.
.	.	16eLL	.
.	.	16d	.
.	.	16c#	.
.	.	16dJJ	.
.	.	16ALL	8aa)
.	.	16d	.
.	.	16F#	8r
.	.	16AJJ	.
=67	=67	=67	=67
4T	4vi	16BBLL	8f# 8b 8dd
.	.	16D	.
.	.	16F#	8r
.	.	16BJJ	.
4P	4ii7b	16GGLL	8b 8dd 8ee
.	.	16BB	.
.	.	16E	8r
.	.	16GJJ	.
4D	4V7	16AALL	8a 8cc# 8ee 8gg
.	.	16C#	.
.	.	16E	8r
.	.	16AJJ	.
=68	=68	=68	=68
2.T	2.I	4D	(16ff#LL
.	.	.	16dd
.	.	.	16cc#
.	.	.	16eeJJ
.	.	4r	16ddLL
.	.	.	16ff#
.	.	.	16ee
.	.	.	16ggJJ
.	.	4r	16ff#LL
.	.	.	16aa
.	.	.	16gg
.	.	.	16bbJJ)
*-	*-	*-	*-
!!!COM: Mozart
!!!OTL: 9 Variationen uber ein Minuett von Duport
!!!Variation: Variation 2 e
**function	**harm	**kern	**kern
*	*	*clefF4	*clefG2
*	*	*k[f#c#]	*k[f#c#]
*M3/4	*M3/4	*M3/4	*M3/4
*D:	*D:	*D:	*D
=69	=69	=69	=69
2.T	2.I	16DLL	(2dd 2ff# 2aa
.	.	16d	.
.	.	16c#	.
.	.	16dJJ	.
.	.	16eLL	.
.	.	16d	.
.	.	16c#	.
.	.	16dJJ	.
.	.	16ALL	8ddd)
.	.	16d	.
.	.	16F#	8r
.	.	16AJJ	.
=70	=70	=70	=70
2.T	2.I	16DLL	(2a 2dd 2ff#
.	.	16d	.
.	.	16c#	.
.	.	16dJJ	.
.	.	16eLL	.
.	.	16d	.
.	.	16c#	.
.	.	16dJJ	.
.	.	16ALL	8aa)
.	.	16d	.
.	.	16F#	8r
.	.	16AJJ	.
=71	=71	=71	=71
4T	4vi	16BBLL	8f# 8b 8dd
.	.	16D	.
.	.	16F#	8r
.	.	16BJJ	.
4P	4ii7b	16GGLL	8g 8b 8ee
.	.	16BB	.
.	.	16E	8r
.	.	16GJJ	.
4D	4V7	16AALL	8e 8g 8a 8cc#
.	.	16C#	.
.	.	16E	8r
.	.	16AJJ	.
=72	=72	=72	=72
2.T	2.I	16DDLL	4d 4f# 4a 4dd
.	.	16D	.
.	.	16F#	.
.	.	16DJJ	.
.	.	16AALL	4r
.	.	16D	.
.	.	16FF#	.
.	.	16AAJJ	.
.	.	8DD	4r
.	.	8r	.
*-	*-	*-	*-
!!!COM: Mozart
!!!OTL: 9 Variationen uber ein Minuett von Duport
!!!Variation: Variation 3 a
**function	**harm	**kern	**kern
*	*	*clefF4	*clefG2
*	*	*k[f#c#]	*k[f#c#]
*M3/4	*M3/4	*M3/4	*M3/4
*D:	*D:	*D:	*D
=73	=73	=73	=73
.	.	.	(q32a
.	.	.	q32dd
.	.	.	q32ff#
2.T	2.I	16r	[4aa)
.	.	(16DLL	.
.	.	16F#	.
.	.	16AJJ	.
.	.	4d)	16aaLL]
.	.	.	(16a
.	.	.	16dd
.	.	.	16ff#JJ
.	.	4r	16aaLL
.	.	.	16ff#
.	.	.	16ddd'
.	.	.	16ddd'JJ)
=74	=74	=74	=74
2.T	2.I	16r	[4ff#
.	.	(16DDLL	.
.	.	16FF#	.
.	.	16AAJJ	.
.	.	4D)	16ff#LL]
.	.	.	(16f#
.	.	.	16a
.	.	.	16ddJJ
.	.	4r	16ff#LL
.	.	.	16dd
.	.	.	16aa'
.	.	.	16aa'JJ)
=75	=75	=75	=75
4T	4vi	8B	16r
.	.	.	16f#'LL
.	.	8r	(16b
.	.	.	16ddJJ)
4P	4iib	8G	16r
.	.	.	16g'LL
.	.	8r	(16b
.	.	.	16eeJJ)
4D	4V7	8A	16r
.	.	.	16e'LL
.	.	8r	(16g
.	.	.	16cc#JJ)
=76	=76	=76	=76
2.T	2.I	4D	(16ddLL
.	.	.	16d
.	.	.	16e
.	.	.	16f#JJ
.	.	4r	16gLL
.	.	.	16a
.	.	.	16b
.	.	.	16cc#JJ
.	.	4r	16ddLL
.	.	.	16ee
.	.	.	16ff#
.	.	.	16ggJJ
*-	*-	*-	*-
!!!COM: Mozart
!!!OTL: 9 Variationen uber ein Minuett von Duport
!!!Variation: Variation 3 b
**function	**harm	**kern	**kern
*	*	*clefF4	*clefG2
*	*	*k[f#c#]	*k[f#c#]
*M3/4	*M3/4	*M3/4	*M3/4
*D:	*D:	*D:	*D
=77	=77	=77	=77
2.T	2.I	16r	[4aa
.	.	(16DDLL	.
.	.	16FF#	.
.	.	16AAJJ	.
.	.	4D)	16aaLL])
.	.	.	(16a
.	.	.	16dd
.	.	.	16ff#JJ
.	.	4r	16aaLL
.	.	.	16ff#
.	.	.	16ddd'
.	.	.	16ddd'JJ)
=78	=78	=78	=78
2.T	2.I	16r	[4ff#
.	.	(16DLL	.
.	.	16F#	.
.	.	16AJJ	.
.	.	4d)	16ff#LL]
.	.	.	(16f#
.	.	.	16a
.	.	.	16ddJJ
.	.	4r	16ff#LL
.	.	.	16dd
.	.	.	16aa'
.	.	.	16aa'JJ)
=79	=79	=79	=79
4T	4vi	16r	8dd
.	.	(16BBLL	.
.	.	16D	8r
.	.	16BJJ)	.
4P	4iib	16r	8g 8ee
.	.	(16GGLL	.
.	.	16BB	8r
.	.	16GJJ)	.
4D	4V	16r	8e 8cc#
.	.	(16AALL	.
.	.	16C#	8r
.	.	16AJJ)	.
=80	=80	=80	=80
2.T	2.I	16r	4f# 4dd
.	.	(16DLL	.
.	.	16F#	.
.	.	16DJJ	.
.	.	16AALL	4r
.	.	16D	.
.	.	16FF#	.
.	.	16AAJJ	.
.	.	4DD)	4r
*-	*-	*-	*-
!!!COM: Mozart
!!!OTL: 9 Variationen uber ein Minuett von Duport
!!!Variation: Variation 3 c
**function	**harm	**kern	**kern
*	*	*clefF4	*clefG2
*	*	*k[f#c#]	*k[f#c#]
*M3/4	*M3/4	*M3/4	*M3/4
*D:	*D:	*D:	*D
=81	=81	=81	=81
2.D	2.V	16r	4a 4cc# 4ee
.	.	(16AAALL	.
.	.	16CC#	.
.	.	16EEJJ	.
.	.	4AA)	16r
.	.	.	(16c#LL
.	.	.	16e
.	.	.	16aJJ
.	.	16r	4cc#)
.	.	(16ALL	.
.	.	16c#	.
.	.	16eJJ	.
=82	=82	=82	=82
2.D	2.V	4a)	16r
.	.	.	(16eeLL
.	.	.	16aa
.	.	.	16ccc#JJ
.	.	4r	16eeeLL
.	.	.	16ddd
.	.	.	16ccc#
.	.	.	16bbJJ
.	.	4r	16aaLL
.	.	.	16gg
.	.	.	16ff#
.	.	.	16eeJJ)
=83	=83	=83	=83
2.T	2.I	16r	4ff#
.	.	(16DDLL	.
.	.	16FF#	.
.	.	16AAJJ	.
.	.	4D)	16r
.	.	.	(16f#LL
.	.	.	16a
.	.	.	16ddJJ
*	*	*clefG2	*
.	.	16r	4ff#)
.	.	(16dLL	.
.	.	16f#	.
.	.	16aJJ	.
=84	=84	=84	=84
2.T	2.I	4dd)	16r
.	.	.	16aaLL
.	.	.	16bb
.	.	.	16ccc#JJ
.	.	4r	16dddLL
.	.	.	16ccc#
.	.	.	16bb
.	.	.	16aaJJ
.	.	4r	16ggLL
.	.	.	16ff#
.	.	.	16ee
.	.	.	16ddJJ
*	*	clefF4	*
=85	=85	=85	=85
4.T	4.I	4.D	16ff#LL 16aa
.	.	.	16dd
.	.	.	16ddd
.	.	.	16ddJJ
.	.	.	16ff#LL 16aa
.	.	.	16dd
8T	8IVc	8G	16gg 16bb
.	.	.	16ddJJ
8T	8I	8DL	16ff#LL 16aa
.	.	.	16dd
8T	8IVc	8GJ	16gg 16bb
.	.	.	16ddJJ
=86	=86	=86	=86
4.T	4.I	4.D	16ff#LL 16aa
.	.	.	16dd
.	.	.	16ddd
.	.	.	16ddJJ
.	.	.	16ff#LL 16aa
.	.	.	16dd
8T	8IVc	8G	16gg 16bb
.	.	.	16ddJJ
8T	8I	8DL	16ff#LL 16aa
.	.	.	16dd
8T	8IVc	8GJ	16gg 16bb
.	.	.	16ddJJ
=87	=87	=87	=87
4T	4I	16DLL	16aaLL
.	.	16A	16ff#
.	.	16F#	16dd
.	.	16AJJ	16aaJJ
4T	4V7b	16C#LL	16ggLL
.	.	16A	16ee
.	.	16E	16a
.	.	16AJJ	16ggJJ
4T	4I	16DLL	16ff#LL
.	.	16A	16dd
.	.	16F#	16a
.	.	16AJJ	16ff#JJ
=88	=88	=88	=88
2.D	2.V	4AA	16eeLL
.	.	.	16a
.	.	.	16cc#
.	.	.	16aJJ
*	*	*	*^
.	.	4r	8dd'L	16bLL
.	.	.	.	16a
.	.	.	8ee'J	16cc#
.	.	.	.	16aJJ
.	.	4r	8ff#'L	16ddLL
.	.	.	.	16a
.	.	.	8gg'J	16ee
.	.	.	.	16aJJ
*	*	*	*v	*v
*-	*-	*-	*-
!!!COM: Mozart
!!!OTL: 9 Variationen uber ein Minuett von Duport
!!!Variation: Variation 3 d
**function	**harm	**kern	**kern
*	*	*clefF4	*clefG2
*	*	*k[f#c#]	*k[f#c#]
*M3/4	*M3/4	*M3/4	*M3/4
*D:	*D:	*D:	*D
!	!exact repeat of 3a	!	!
=89	=89	=89	=89
.	.	.	(q32a
.	.	.	q32dd
.	.	.	q32ff#
2.T	2.I	16r	[4aa)
.	.	(16DLL	.
.	.	16F#	.
.	.	16AJJ	.
.	.	4d)	16aaLL]
.	.	.	(16a
.	.	.	16dd
.	.	.	16ff#JJ
.	.	4r	16aaLL
.	.	.	16ff#
.	.	.	16ddd'
.	.	.	16ddd'JJ)
=90	=90	=90	=90
2.T	2.I	16r	[4ff#
.	.	(16DDLL	.
.	.	16FF#	.
.	.	16AAJJ	.
.	.	4D)	16ff#LL]
.	.	.	(16f#
.	.	.	16a
.	.	.	16ddJJ
.	.	4r	16ff#LL
.	.	.	16dd
.	.	.	16aa'
.	.	.	16aa'JJ)
=91	=91	=91	=91
4T	4vi	8B	16r
.	.	.	16f#'LL
.	.	8r	(16b
.	.	.	16ddJJ)
4P	4iib	8G	16r
.	.	.	16g'LL
.	.	8r	(16b
.	.	.	16eeJJ)
4D	4V7	8A	16r
.	.	.	16e'LL
.	.	8r	(16g
.	.	.	16cc#JJ)
=92	=92	=92	=92
2.T	2.I	4D	(16ddLL
.	.	.	16d
.	.	.	16e
.	.	.	16f#JJ
.	.	4r	16gLL
.	.	.	16a
.	.	.	16b
.	.	.	16cc#JJ
.	.	4r	16ddLL
.	.	.	16ee
.	.	.	16ff#
.	.	.	16ggJJ
*-	*-	*-	*-
!!!COM: Mozart
!!!OTL: 9 Variationen uber ein Minuett von Duport
!!!Variation: Variation 3 e
**function	**harm	**kern	**kern
*	*	*clefF4	*clefG2
*	*	*k[f#c#]	*k[f#c#]
*M3/4	*M3/4	*M3/4	*M3/4
*D:	*D:	*D:	*D
!	!exact repeat of 3b	!	!
=93	=93	=93	=93
2.T	2.I	16r	[4aa
.	.	(16DDLL	.
.	.	16FF#	.
.	.	16AAJJ	.
.	.	4D)	16aaLL])
.	.	.	(16a
.	.	.	16dd
.	.	.	16ff#JJ
.	.	4r	16aaLL
.	.	.	16ff#
.	.	.	16ddd'
.	.	.	16ddd'JJ)
=94	=94	=94	=94
2.T	2.I	16r	[4ff#
.	.	(16DLL	.
.	.	16F#	.
.	.	16AJJ	.
.	.	4d)	16ff#LL]
.	.	.	(16f#
.	.	.	16a
.	.	.	16ddJJ
.	.	4r	16ff#LL
.	.	.	16dd
.	.	.	16aa'
.	.	.	16aa'JJ)
=95	=95	=95	=95
4T	4vi	16r	8dd
.	.	(16BBLL	.
.	.	16D	8r
.	.	16BJJ)	.
4P	4iib	16r	8g 8ee
.	.	(16GGLL	.
.	.	16BB	8r
.	.	16GJJ)	.
4D	4V	16r	8e 8cc#
.	.	(16AALL	.
.	.	16C#	8r
.	.	16AJJ)	.
=96	=96	=96	=96
2.T	2.I	16r	4f# 4dd
.	.	(16DLL	.
.	.	16F#	.
.	.	16DJJ	.
.	.	16AALL	4r
.	.	16D	.
.	.	16FF#	.
.	.	16AAJJ	.
.	.	4DD)	4r
*-	*-	*-	*-
!!!COM: Mozart
!!!OTL: 9 Variationen uber ein Minuett von Duport
!!!Variation: Variation 4 a
**function	**harm	**kern	**kern
*	*	*clefF4	*clefG2
*	*	*k[f#c#]	*k[f#c#]
*M3/4	*M3/4	*M3/4	*M3/4
*D:	*D:	*D:	*D
=97	=97	=97	=97
2.T	2.I	4d	(12ff#L 12aa
.	.	.	12ee 12gg
.	.	.	12ddJ) 12ff#
.	.	4r	12dd'L 12ff#'
.	.	.	12dd' 12ff#'
.	.	.	12dd'J 12ff#'
.	.	4r	12dd'L 12ff#'
.	.	.	12dd' 12ff#'
.	.	.	12dd'J 12ff#'
=98	=98	=98	=98
2.T	2.I	4D	(12aL 12ff#
.	.	.	12g 12ee
.	.	.	12f#J) 12dd
.	.	4r	12f#'L 12dd'
.	.	.	12f#' 12dd'
.	.	.	12f#'J 12dd'
.	.	4r	12f#'L 12dd'
.	.	.	12f#' 12dd'
.	.	.	12f#'J 12dd'
=99	=99	=99	=99
4T	4I	8d	12r
.	.	.	(12f#L 12dd
.	.	8r	.
.	.	.	12aJ) 12ff#
4P	4iib	8G	12r
.	.	.	(12gL 12ee
.	.	8r	.
.	.	.	12bJ) 12gg
4D	4V7	8A	12r
.	.	.	(12eL 12cc#
.	.	8r	.
.	.	.	12gJ) 12ee
=100	=100	=100	=100
2.T	2.I	4D	12f#L 12dd
.	.	.	12a'
.	.	.	12b'J
.	.	4r	12cc#'L
.	.	.	12dd'
.	.	.	12ee'J
.	.	4r	12ff#'L
.	.	.	12gg'
.	.	.	12gg#'J
*-	*-	*-	*-
!!!COM: Mozart
!!!OTL: 9 Variationen uber ein Minuett von Duport
!!!Variation: Variation 4 b
**function	**harm	**kern	**kern
*	*	*clefG2	*clefG2
*	*	*k[f#c#]	*k[f#c#]
*M3/4	*M3/4	*M3/4	*M3/4
*D:	*D:	*D:	*D
=101	=101	=101	=101
2.T	2.I	(12f#L 12a	4.aa
.	.	12e 12g	.
.	.	12dJ) 12f#	.
.	.	12d'L 12f#'	.
.	.	12d' 12f#'	.
.	.	.	(32bbLLL
.	.	.	32aa
.	.	12d'J 12f#'	.
.	.	.	32gg#
.	.	.	32aaJJJ
.	.	12d'L 12f#'	8ddd)
.	.	12d' 12f#'	.
.	.	.	8r
.	.	12d'J 12f#'	.
*	*	*clefF4	*
=102	=102	=102	=102
2.T	2.Ib	(12AL 12f#	4.ff#
.	.	12G 12e	.
.	.	12F#J) 12d	.
.	.	12F#'L 12d'	.
.	.	12F#' 12d'	.
.	.	.	(32ggLLL
.	.	.	32ff#
.	.	12F#'J 12d'	.
.	.	.	32ee
.	.	.	32ff#JJJ
.	.	12F#'L 12d'	8aa)
.	.	12F#' 12d'	.
.	.	.	8r
.	.	12F#'J 12d'	.
=103	=103	=103	=103
4T	4vi	8B	12r
.	.	.	(12f#L 12dd
.	.	8r	.
.	.	.	12bJ) 12ff#
4P	4iib	8G	12r
.	.	.	(12gL 12ee
.	.	8r	.
.	.	.	12bJ) 12gg
4D	4V7	8A	12r
.	.	.	(12eL 12cc#
.	.	8r	.
.	.	.	12gJ) 12ee
=104	=104	=104	=104
2.T	2.I	12r	4f# 4dd
.	.	(12dL	.
.	.	12AJ	.
.	.	12F#L	4r
.	.	12D	.
.	.	12AAJ	.
.	.	8DD)	4r
.	.	8r	.
*-	*-	*-	*-
!!!COM: Mozart
!!!OTL: 9 Variationen uber ein Minuett von Duport
!!!Variation: Variation 4 c
**function	**harm	**kern	**kern
*	*	*clefF4	*clefG2
*	*	*k[f#c#]	*k[f#c#]
*M3/4	*M3/4	*M3/4	*M3/4
*D:	*D:	*D:	*D
=105	=105	=105	=105
2.D	2.V	2.AA 2.A	(12cc#L 12ee
.	.	.	12a
.	.	.	12eeJ) 12gg
.	.	.	(12eeL 12gg
.	.	.	12cc#
.	.	.	12ggJ) 12ccc#
.	.	.	(12ggL 12ccc#
.	.	.	12ee
.	.	.	12ccc#J) 12eee
=106	=106	=106	=106
2.D	2.V	4a	12r
.	.	.	12ccc#'L 12eee'
.	.	.	12bb'J 12ddd'
.	.	4r	12aa'L 12ccc#'
.	.	.	12gg' 12bb'
.	.	.	12ff#'J 12aa'
.	.	4r	12ee'L 12gg'
.	.	.	12dd' 12ff#'
.	.	.	12cc#'J 12ee'
=107	=107	=107	=107
2.T	2.I	2.D 2.d	(12ddL 12ff#
.	.	.	12a
.	.	.	12ff#J) 12aa
.	.	.	(12ff#L 12aa
.	.	.	12dd
.	.	.	12ff#J) 12ddd
.	.	.	(12ff#L 12ddd
.	.	.	12ee 12ccc#
.	.	.	12ff#J) 12ddd
=108	=108	=108	=108
2.T	2.I	4DD	12r
.	.	.	(12cc#L
.	.	.	12ddJ)
.	.	4r	12dd#'L
.	.	.	12ee'
.	.	.	12ff'J
.	.	4r	12ff#'L
.	.	.	12gg'
.	.	.	12gg#'J
=109	=109	=109	=109
2T	2I	2r	12aa'L
.	.	.	12ddd'
.	.	.	12ccc#'J
.	.	.	12ccc'L
.	.	.	12bb'
.	.	.	12bb-'J
4T	4V7b	(4c# 4g	8aa'
.	.	.	8r
=110	=110	=110	=110
2T	2I	4d) 4f#	12r
.	.	.	12ddd'L
.	.	.	12ccc#'J
.	.	4r	12ccc'L
.	.	.	12bb'
.	.	.	12bb-'J
4T	4V7b	(4c# 4g	8aa'
.	.	.	8r
=111	=111	=111	=111
4T	4I	8d) 8f#	12r
.	.	.	(12eeL 12gg#
.	.	8r	.
.	.	.	12ff#J) 12aa
4P	4iib	8G	12r
.	.	.	(12dd#L 12ff#
.	.	8r	.
.	.	.	12eeJ) 12gg
4P	4viiom7/V	8G#	12r
.	.	.	(12cc#L 12ee#
.	.	8r	.
.	.	.	12ddJ) 12ff#
=112	=112	=112	=112
2.D	2.V	12r	4cc# 4ee
.	.	(12AAL	.
.	.	12C#J	.
.	.	12E'L)	4r
.	.	12A'	.
.	.	12B-'J	.
.	.	12B'L	4r
.	.	12c'	.
.	.	12c#'J	.
*-	*-	*-	*-
!!!COM: Mozart
!!!OTL: 9 Variationen uber ein Minuett von Duport
!!!Variation: Variation 4 d
**function	**harm	**kern	**kern
*	*	*clefF4	*clefG2
*	*	*k[f#c#]	*k[f#c#]
*M3/4	*M3/4	*M3/4	*M3/4
*D:	*D:	*D:	*D
!	!exact repeat of 4a	!	!
=113	=113	=113	=113
2.T	2.I	4d	(12ff#L 12aa
.	.	.	12ee 12gg
.	.	.	12ddJ) 12ff#
.	.	4r	12dd'L 12ff#'
.	.	.	12dd' 12ff#'
.	.	.	12dd'J 12ff#'
.	.	4r	12dd'L 12ff#'
.	.	.	12dd' 12ff#'
.	.	.	12dd'J 12ff#'
=114	=114	=114	=114
2.T	2.I	4D	(12aL 12ff#
.	.	.	12g 12ee
.	.	.	12f#J) 12dd
.	.	4r	12f#'L 12dd'
.	.	.	12f#' 12dd'
.	.	.	12f#'J 12dd'
.	.	4r	12f#'L 12dd'
.	.	.	12f#' 12dd'
.	.	.	12f#'J 12dd'
=115	=115	=115	=115
4T	4I	8d	12r
.	.	.	(12f#L 12dd
.	.	8r	.
.	.	.	12aJ) 12ff#
4P	4iib	8G	12r
.	.	.	(12gL 12ee
.	.	8r	.
.	.	.	12bJ) 12gg
4D	4V7	8A	12r
.	.	.	(12eL 12cc#
.	.	8r	.
.	.	.	12gJ) 12ee
=116	=116	=116	=116
2.T	2.I	4D	12f#L 12dd
.	.	.	12a'
.	.	.	12b'J
.	.	4r	12cc#'L
.	.	.	12dd'
.	.	.	12ee'J
.	.	4r	12ff#'L
.	.	.	12gg'
.	.	.	12gg#'J
*-	*-	*-	*-
!!!COM: Mozart
!!!OTL: 9 Variationen uber ein Minuett von Duport
!!!Variation: Variation 4 e
**function	**harm	**kern	**kern
*	*	*clefG2	*clefG2
*	*	*k[f#c#]	*k[f#c#]
*M3/4	*M3/4	*M3/4	*M3/4
*D:	*D:	*D:	*D
!	!exact repeat of 4b	!	!
=117	=117	=117	=117
2.T	2.I	(12f#L 12a	4.aa
.	.	12e 12g	.
.	.	12dJ) 12f#	.
.	.	12d'L 12f#'	.
.	.	12d' 12f#'	.
.	.	.	(32bbLLL
.	.	.	32aa
.	.	12d'J 12f#'	.
.	.	.	32gg#
.	.	.	32aaJJJ
.	.	12d'L 12f#'	8ddd)
.	.	12d' 12f#'	.
.	.	.	8r
.	.	12d'J 12f#'	.
*	*	*clefF4	*
=118	=118	=118	=118
2.T	2.Ib	(12AL 12f#	4.ff#
.	.	12G 12e	.
.	.	12F#J) 12d	.
.	.	12F#'L 12d'	.
.	.	12F#' 12d'	.
.	.	.	(32ggLLL
.	.	.	32ff#
.	.	12F#'J 12d'	.
.	.	.	32ee
.	.	.	32ff#JJJ
.	.	12F#'L 12d'	8aa)
.	.	12F#' 12d'	.
.	.	.	8r
.	.	12F#'J 12d'	.
=119	=119	=119	=119
4T	4vi	8B	12r
.	.	.	(12f#L 12dd
.	.	8r	.
.	.	.	12bJ) 12ff#
4P	4iib	8G	12r
.	.	.	(12gL 12ee
.	.	8r	.
.	.	.	12bJ) 12gg
4D	4V7	8A	12r
.	.	.	(12eL 12cc#
.	.	8r	.
.	.	.	12gJ) 12ee
=120	=120	=120	=120
2.T	2.I	12r	4f# 4dd
.	.	(12dL	.
.	.	12AJ	.
.	.	12F#L	4r
.	.	12D	.
.	.	12AAJ	.
.	.	8DD)	4r
.	.	8r	.
*-	*-	*-	*-
!!!COM: Mozart
!!!OTL: 9 Variationen uber ein Minuett von Duport
!!!Variation: Variation 5 a
**function	**harm	**kern	**kern
*	*	*clefG2	*clefG2
*	*	*k[f#c#]	*k[f#c#]
*M3/4	*M3/4	*M3/4	*M3/4
*D:	*D:	*D:	*D
=121	=121	=121	=121
4.T	4.I	4r	8aa'L
.	.	.	8aa'J
.	.	8r	8aa'L
8T	8V7b	8cc# 8gg	8aa'J
4T	4I	8dd 8ff#	(8aaL
.	.	8r	8dddJ
=122	=122	=122	=122
4.T	4.I	4r	8ff#'L)
.	.	.	8ff#'J
.	.	8r	8ff#'L
8T	8V7b/vi	8a# 8ee	8ff#'J
4T	4vi	8b 8dd	(8ff#L
.	.	8r	8bbJ
=123	=123	=123	=123
4T	4Ib	8r	8dd)
.	.	8f# 8a	8r
4P	4iib	8r	8ee
.	.	8g 8b	8r
4D	4V7	8r	8gg
.	.	8a 8cc#	8r
=124	=124	=124	=124
2.T	2.I	4d	8ff#L
.	.	.	(q64dd
.	.	.	8eeJ)
.	.	.	(q64ee
.	.	4r	8ff#L)
.	.	.	(q64ff#
.	.	.	8ggJ)
.	.	.	(q64gg
.	.	4r	8aaL)
.	.	.	(q64aa
.	.	.	8bbJ)
*-	*-	*-	*-
!!!COM: Mozart
!!!OTL: 9 Variationen uber ein Minuett von Duport
!!!Variation: Variation 5 b
**function	**harm	**kern	**kern
*	*	*clefG2	*clefG2
*	*	*k[f#c#]	*k[f#c#]
*M3/4	*M3/4	*M3/4	*M3/4
*D:	*D:	*D:	*D
=125	=125	=125	=125
8T	8I	8r	8aa'L
8T	8V7b	8cc# 8gg	8aa'J
8T	8I	8ddL 8ff#	8aa'L
8T	8V7b	8cc#J 8gg	8aa'J
4T	4I	8dd 8ff#	(16aaLL
.	.	.	16bb
.	.	8r	16ccc#
.	.	.	16dddJJ
=126	=126	=126	=126
8T	8I	8r	8ff#'L)
8T	8V7b/vi	8a# 8ee	8ff#'J
8T	8vi	8bL 8dd	8ff#'L
8T	8V7b/vi	8a#J 8ee	8ff#'J
4T	4vi	8b 8dd	(16ff#LL
.	.	.	16gg#
.	.	8r	16aa#
.	.	.	16bbJJ
=127	=127	=127	=127
4T	4Ib	8r	8.ddL
.	.	8f# 8a	.
.	.	.	16ff#Jk
4P	4iib	8r	8.eeL
.	.	8g 8b	.
.	.	.	16ggJk
4D	4V7	8r	8.cc#L
.	.	8A 8g	.
.	.	.	16eeJk
*	*	*clefF4	*
=128	=128	=128	=128
2.T	2.I	8r	4dd)
.	.	8FF# 8F#	.
.	.	8GGL 8G	4r
.	.	8AAJ 8A	.
.	.	8DD 8D	4r
.	.	8r	.
*-	*-	*-	*-
!!!COM: Mozart
!!!OTL: 9 Variationen uber ein Minuett von Duport
!!!Variation: Variation 5 c
**function	**harm	**kern	**kern
*	*	*clefF4	*clefG2
*	*	*k[f#c#]	*k[f#c#]
*M3/4	*M3/4	*M3/4	*M3/4
*D:	*D:	*D:	*D
=129	=129	=129	=129
2D	2V	8AL 8c#	8aL 8ee
.	.	8AJ 8c#	8aJ 8ee
.	.	8AL 8c#	8aL 8ee
.	.	8AJ 8c#	8aJ 8ee
4D	4Ic	8AL 8d	8aL 8ff
.	.	8AJ 8d#	8aJ 8ff#
=130	=130	=130	=130
*	*	*^	*^
2.D	2.V7	(4.e	2A	(4.gg	2a
.	.	8f#	.	24ff#LL	.
.	.	.	.	24ee	.
.	.	.	.	24ddJJ	.
.	.	8g)	8A	8cc#)	8a
.	.	8r	8r	8r	8r
*	*	*v	*v	*	*
*	*	*	*v	*v
*	*	*clefG2	*
=131	=131	=131	=131
2T	2I	8dL	8ddL 8ff#
.	.	8dJ	8ddJ 8ff#
.	.	8dL	8ddL 8ff#
.	.	8dJ	8ddJ 8ff#
4T	4ii7d	8dL 8e	8ddL 8gg
.	.	8dJ 8e#	8ddJ 8gg#
=132	=132	=132	=132
*	*	*^	*^
2.T	2.I	(4.f#	2d	4.aa	[2dd
.	.	24gLL	.	24ggLL	.
.	.	24a	.	24ff#	.
.	.	24gJJ	.	24eeJJ	.
.	.	8f#)	8d	8ddL	8dd]
*	*	*	*	*v	*v
*	*	*v	*v	*
.	.	8r	8bbJ 8ddd
=133	=133	=133	=133
4T	4Vb	8r	(8aaL 8ccc#
.	.	(8c#	8ggJ 8bb
2T	2I	8dL	4.ff#) 4.aa
.	.	8eJ	.
.	.	8f#)	.
.	.	8r	8bb 8ddd
=134	=134	=134	=134
4T	4Vb	8r	(8aaL 8ccc#
.	.	(8cc#	8ggJ 8bb
2T	2I	8ddL	4.ff#) 4.aa
.	.	8eeJ	.
.	.	8ff#L	.
.	.	8dd#J	(8bb
=135	=135	=135	=135
4T	4V7b	8eeL	8ggL
.	.	8cc#J	8aaJ
4T	4vi	8ddL)	8ff#L
.	.	8bJ 8dd	8ggJ
8T	8Ib	8f#L 8dd	8aaL
8P	8viio/V	8g#J 8dd	8bbJ
=136	=136	=136	=136
*	*	*^	*
4D	4Cc	(4dd	2a	8.ff#L
.	.	.	.	32ggLL
.	.	.	.	32ff#JJJ
2D	2V	4cc#)	.	8eeL
.	.	.	.	8ff#J
*	*	*v	*v	*
.	.	4r	8ggL)
.	.	.	8gg#J
*-	*-	*-	*-
!!!COM: Mozart
!!!OTL: 9 Variationen uber ein Minuett von Duport
!!!Variation: Variation 5 d
**function	**harm	**kern	**kern
*	*	*clefG2	*clefG2
*	*	*k[f#c#]	*k[f#c#]
*M3/4	*M3/4	*M3/4	*M3/4
*D:	*D:	*D:	*D
!	!exact repeat of 5a	!	!
=137	=137	=137	=137
4.T	4.I	4r	8aa'L
.	.	.	8aa'J
.	.	8r	8aa'L
8T	8V7b	8cc# 8gg	8aa'J
4T	4I	8dd 8ff#	(8aaL
.	.	8r	8dddJ
=138	=138	=138	=138
4.T	4.I	4r	8ff#'L)
.	.	.	8ff#'J
.	.	8r	8ff#'L
8T	8V7b/vi	8a# 8ee	8ff#'J
4T	4vi	8b 8dd	(8ff#L
.	.	8r	8bbJ
=139	=139	=139	=139
4T	4Ib	8r	8dd)
.	.	8f# 8a	8r
4P	4iib	8r	8ee
.	.	8g 8b	8r
4D	4V7	8r	8gg
.	.	8a 8cc#	8r
=140	=140	=140	=140
2.T	2.I	4d	8ff#L
.	.	.	(q64dd
.	.	.	8eeJ)
.	.	.	(q64ee
.	.	4r	8ff#L)
.	.	.	(q64ff#
.	.	.	8ggJ)
.	.	.	(q64gg
.	.	4r	8aaL)
.	.	.	(q64aa
.	.	.	8bbJ)
*-	*-	*-	*-
!!!COM: Mozart
!!!OTL: 9 Variationen uber ein Minuett von Duport
!!!Variation: Variation 5 e
**function	**harm	**kern	**kern
*	*	*clefG2	*clefG2
*	*	*k[f#c#]	*k[f#c#]
*M3/4	*M3/4	*M3/4	*M3/4
*D:	*D:	*D:	*D
!	!exact repeat of 5b	!	!
=141	=141	=141	=141
8T	8I	8r	8aa'L
8T	8V7b	8cc# 8gg	8aa'J
8T	8I	8ddL 8ff#	8aa'L
8T	8V7b	8cc#J 8gg	8aa'J
4T	4I	8dd 8ff#	(16aaLL
.	.	.	16bb
.	.	8r	16ccc#
.	.	.	16dddJJ
=142	=142	=142	=142
8T	8I	8r	8ff#'L)
8T	8V7b/vi	8a# 8ee	8ff#'J
8T	8vi	8bL 8dd	8ff#'L
8T	8V7b/vi	8a#J 8ee	8ff#'J
4T	4vi	8b 8dd	(16ff#LL
.	.	.	16gg#
.	.	8r	16aa#
.	.	.	16bbJJ
=143	=143	=143	=143
4T	4Ib	8r	8.ddL
.	.	8f# 8a	.
.	.	.	16ff#Jk
4P	4iib	8r	8.eeL
.	.	8g 8b	.
.	.	.	16ggJk
4D	4V7	8r	8.cc#L
.	.	8A 8g	.
.	.	.	16eeJk
*	*	*clefF4	*
=144	=144	=144	=144
2.T	2.I	8r	4dd)
.	.	8FF# 8F#	.
.	.	8GGL 8G	4r
.	.	8AAJ 8A	.
.	.	8DD 8D	4r
.	.	8r	.
*-	*-	*-	*-
!!!COM: Mozart
!!!OTL: 9 Variationen uber ein Minuett von Duport
!!!Variation: Variation 6 a
**function	**harm	**kern	**kern
*	*	*clefG2	*clefG2
*	*	*k[b-]	*k[b-]
*M3/4	*M3/4	*M3/4	*M3/4
*d:	*d:	*d:	*d:
=145	=145	=145	=145
2.T	2.i	4r	(4aa'
.	.	4d 4f 4a	4aa')
.	.	4d 4f 4a	8r
.	.	.	8ddd
=146	=146	=146	=146
2.T	2.i	4r	(4ff'
.	.	4d 4f 4a	4ff')
.	.	4d 4f 4a	8r
.	.	.	8aa
=147	=147	=147	=147
*	*	*^	*
2D	2Cc	4f	2.A	(8ddL
.	.	.	.	32eeLL
.	.	.	.	32dd
.	.	.	.	32cc#
.	.	.	.	32ddJJJ
.	.	4a	.	4.ff
4D	4V7	4g	.	.
.	.	.	.	8ee
=148	=148	=148	=148	=148
2.T	2.i	4f	4d	8ddL)
.	.	.	.	(8cc#'J
*	*	*v	*v	*
.	.	4r	8dd'L
.	.	.	8ee'J
.	.	4r	8ff'L
.	.	.	8gg'J)
*-	*-	*-	*-
!!!COM: Mozart
!!!OTL: 9 Variationen uber ein Minuett von Duport
!!!Variation: Variation 6 b
**function	**harm	**kern	**kern
*	*	*clefG2	*clefG2
*	*	*k[b-]	*k[b-]
*M3/4	*M3/4	*M3/4	*M3/4
*d:	*d:	*d:	*d:
=149	=149	=149	=149
*	*	*^	*
2.T	2.i	4r	2.d	(8aaL
.	.	.	.	32bbLL
.	.	.	.	32aa
.	.	.	.	32gg#
.	.	.	.	32aaJJJ
.	.	4f 4a	.	8bbL)
.	.	.	.	8ccc#J
.	.	4f 4a	.	(8ddd'L
.	.	.	.	8eee'J)
=150	=150	=150	=150	=150
2.T	2.i	4r	2.d	8fff'L
.	.	.	.	(8ccc#J
.	.	4f 4a	.	8dddL)
.	.	.	.	(8gg#J
.	.	4f 4a	.	8aaL)
.	.	.	.	(8eeJ
=151	=151	=151	=151	=151
2D	2Cc	4r	2.A	8ffL)
.	.	.	.	(32ggLL
.	.	.	.	32ff
.	.	.	.	32ee
.	.	.	.	32ffJJJ
.	.	4f 4a	.	4.aa)
4D	4V7	4e 4g	.	.
.	.	.	.	8cc#
*	*	*v	*v	*
*	*	*clefF4	*
=152	=152	=152	=152
2.T	2.i	4r	(4g 4ee
.	.	4d	4f) 4dd
.	.	4D	4r
*-	*-	*-	*-
!!!COM: Mozart
!!!OTL: 9 Variationen uber ein Minuett von Duport
!!!Variation: Variation 6 c
**function	**harm	**kern	**kern
*	*	*clefF4	*clefG2
*	*	*k[b-]	*k[b-]
*M3/4	*M3/4	*M3/4	*M3/4
*d:	*d:	*d:	*d:
=153	=153	=153	=153
2.D	2.V	4r	4ee
.	.	(4A' 4c#'	8r
.	.	.	(8ee'
.	.	4A') 4c#'	8ee'L
.	.	.	8ee'J)
*	*	*clefG2	*
=154	=154	=154	=154
2.D	2.V	4r	(8.eeL
.	.	.	16aaJk)
.	.	(4a' 4cc#'	(4.aa
.	.	4a') 4cc#'	.
.	.	.	8ee)
=155	=155	=155	=155
2.T	2.i	4r	(8ggL
.	.	.	8ffJ)
.	.	(4d' 4a'	8r
.	.	.	(8ff'
.	.	4d') 4a'	8ff'L
.	.	.	8ff'J)
=156	=156	=156	=156
2.T	2.i	4r	8.ffL
.	.	.	16ggJk
.	.	(4dd' 4ff'	4.aa
.	.	4dd') 4ff'	.
.	.	.	8ddd
=157	=157	=157	=157
4T	4viioD7	(4cc# 4gg	(8cccnL
.	.	.	8bb-J
2T	2i	8dd) 8ff	16aaLL)
.	.	.	(16fff
.	.	8r	16eee
.	.	.	16dddJJ
.	.	4r	16ccc#LL
.	.	.	16ddd
.	.	.	16eee
.	.	.	16dddJJ
=158	=158	=158	=158
4T	4viioD7	(4cc# 4gg	8cccnL
.	.	.	8bb-J
2T	2i	8dd) 8ff	16aaLL)
.	.	.	(16bb-
.	.	8r	16bb
.	.	.	16cccJJ
.	.	4r	16ccc#'LL
.	.	.	16ddd'
.	.	.	16eee'
.	.	.	16fff'JJ)
=159	=159	=159	=159
4P	4viioD7b/V	(4b	(8fffL
.	.	.	8gg#J)
4P	4viio	4cc#	(8ggL
.	.	.	8eeeJ)
4P	4viioD7/V	8ddL)	(8ffL
.	.	8g#J	8bbJ)
=160	=160	=160	=160
2D	2ic	(2a 2dd	(4aa
.	.	.	16ggLL
.	.	.	16ff
.	.	.	16ee
.	.	.	16ffJJ
4D	4V	8a) 8cc#	8ee)
.	.	8r	8r
*-	*-	*-	*-
!!!COM: Mozart
!!!OTL: 9 Variationen uber ein Minuett von Duport
!!!Variation: Variation 6 d
**function	**harm	**kern	**kern
*	*	*clefG2	*clefG2
*	*	*k[b-]	*k[b-]
*M3/4	*M3/4	*M3/4	*M3/4
*d:	*d:	*d:	*d:
=161	=161	=161	=161
2.T	2.i	4r	4aa
.	.	4d 4f 4a	(4.aa
.	.	4d 4f 4a	.
.	.	.	8ddd)
=162	=162	=162	=162
2.T	2.i	4r	(8.dddL
.	.	.	16ffJk)
.	.	4d 4f 4a	(4.ff
.	.	4d 4f 4a	.
.	.	.	8aa)
=163	=163	=163	=163
*	*	*^	*
2D	2ic	(4f	2.A	8aa
.	.	.	.	4dd
.	.	4a	.	.
.	.	.	.	4ff
4D	4V7	4g)	.	.
.	.	.	.	8ee
=164	=164	=164	=164	=164
2.T	2.i	4f	4d	(16ddLL
.	.	.	.	32eeL
.	.	.	.	32ddJ
.	.	.	.	16cc#')
.	.	.	.	16dd'JJ
*	*	*v	*v	*
.	.	4r	16ee'LL
.	.	.	16ff'
.	.	.	16gg'
.	.	.	16aa'JJ
.	.	4r	16bb'LL
.	.	.	16ccc#'
.	.	.	16ddd'
.	.	.	16eee'JJ
*-	*-	*-	*-
!!!COM: Mozart
!!!OTL: 9 Variationen uber ein Minuett von Duport
!!!Variation: Variation 6 e
**function	**harm	**kern	**kern
*	*	*clefG2	*clefG2
*	*	*k[b-]	*k[b-]
*M3/4	*M3/4	*M3/4	*M3/4
*d:	*d:	*d:	*d:
=165	=165	=165	=165
*	*	*^	*
2.T	2.i	4r	2.d	8fff'L
.	.	.	.	(8ccc#J
.	.	4f 4a	.	8dddL)
.	.	.	.	(8gg#J
.	.	4f 4a	.	8aaL)
.	.	.	.	8ff'J
=166	=166	=166	=166	=166
2.P	2.Nb	[2B- [2e-	[2G	(8.ee-L
.	.	.	.	16ffJk
.	.	.	.	8.ggL
.	.	.	.	16aaJk
.	.	8B-] 8e-]	8G]	8bb-)
.	.	8r	8r	8r
=167	=167	=167	=167	=167
2D	2ic	4f	4A	(8ddL
.	.	.	.	32eeLL
.	.	.	.	32dd
.	.	.	.	32cc#
.	.	.	.	32ddJJJ)
*	*	*v	*v	*
.	.	4r	(4.a 4.ff
*	*	*clefF4	*
4D	4V7	4AA	.
.	.	.	8g) 8ee
=168	=168	=168	=168
2.T	2.i	4D	4f 4dd
.	.	4AA	4r
.	.	4DD	4r
*-	*-	*-	*-
!!!COM: Mozart
!!!OTL: 9 Variationen uber ein Minuett von Duport
!!!Variation: Variation 7 a
**function	**harm	**kern	**kern
*	*	*clefF4	*clefG2
*	*	*k[f#c#]	*k[f#c#]
*M3/4	*M3/4	*M3/4	*M3/4
*D:	*D:	*D:	*D
=169	=169	=169	=169
*	*	*^	*
2.T	2.I	(8f#L	[2d	16aLL
.	.	.	.	16aa
.	.	8e#J	.	16g#
.	.	.	.	16gg#JJ
.	.	8f#L	.	16aLL
.	.	.	.	16aa
.	.	8e#J	.	16g#
.	.	.	.	16gg#JJ
.	.	8f#)	8d]	16aLL
.	.	.	.	16aa
.	.	8r	8r	16dd
.	.	.	.	16dddJJ
=170	=170	=170	=170	=170
2.T	2.I	(8AL	[2D	16f#LL
.	.	.	.	16ff#
.	.	8G#J	.	16e#
.	.	.	.	16ee#JJ
.	.	8AL	.	16f#LL
.	.	.	.	16ff#
.	.	8G#J	.	16e#
.	.	.	.	16ee#JJ
.	.	8A)	8D]	16f#LL
.	.	.	.	16ff#
*	*	*v	*v	*
.	.	8r	16a
.	.	.	16aaJJ
=171	=171	=171	=171
4T	4vi	8BB 8B	16dLL
.	.	.	16dd
.	.	8r	16f#
.	.	.	16ff#JJ
4P	4iib	8GG 8G	16eLL
.	.	.	16ee
.	.	8r	16g
.	.	.	16ggJJ
4D	4V	8AA 8A	16c#LL
.	.	.	16cc#
.	.	8r	16e
.	.	.	16eeJJ
=172	=172	=172	=172
2.T	2.I	4DD 4D	16dLL
.	.	.	16dd
.	.	.	16c#
.	.	.	16cc#JJ
.	.	4r	16dLL
.	.	.	16dd
.	.	.	16e
.	.	.	16eeJJ
.	.	4r	16f#LL
.	.	.	16ff#
.	.	.	16g
.	.	.	16ggJJ
*-	*-	*-	*-
!!!COM: Mozart
!!!OTL: 9 Variationen uber ein Minuett von Duport
!!!Variation: Variation 7 b
**function	**harm	**kern	**kern
*	*	*clefF2	*clefG2
*	*	*k[f#c#]	*k[f#c#]
*M3/4	*M3/4	*M3/4	*M3/4
*D:	*D:	*D:	*D
=173	=173	=173	=173
2.T	2.I	16DLL	(2a 2ff# 2aa
.	.	16d	.
.	.	16F#	.
.	.	16f#JJ	.
.	.	16ELL	.
.	.	16e	.
.	.	16D	.
.	.	16dJJ	.
.	.	16C#LL	8dd) 8ff# 8ddd
.	.	16c#	.
.	.	16BB	8r
.	.	16BJJ	.
=174	=174	=174	=174
2.T	2.I	16AALL	(2f# 2dd 2ff#
.	.	16A	.
.	.	16GG	.
.	.	16GJJ	.
.	.	16FF#LL	.
.	.	16F#	.
.	.	16EE	.
.	.	16EJJ	.
.	.	16DDLL	8a) 8ff# 8aa
.	.	16D	.
.	.	16CC#	8r
.	.	16C#JJ	.
=175	=175	=175	=175
4P	4IVb	8BBB 8BB	16r
.	.	.	(16gLL
.	.	8r	16dd
.	.	.	16ggJJ)
4P	4Cc	8AAA 8AA	16r
.	.	.	(16f#LL
.	.	8r	16dd
.	.	.	16ff#JJ)
4D	4V	8AAA	16r
.	.	.	(16eLL
.	.	8r	16cc#
.	.	.	16eeJJ)
=176	=176	=176	=176
2.T	2.I	16r	4dd
.	.	(16DLL	.
.	.	16F#	.
.	.	16DJJ	.
.	.	16AALL	4r
.	.	16D	.
.	.	16FF#	.
.	.	16AAJJ	.
.	.	8DD)	4r
.	.	8r	.
*-	*-	*-	*-
!!!COM: Mozart
!!!OTL: 9 Variationen uber ein Minuett von Duport
!!!Variation: Variation 7 c
**function	**harm	**kern	**kern
*	*	*clefF2	*clefG2
*	*	*k[f#c#]	*k[f#c#]
*M3/4	*M3/4	*M3/4	*M3/4
*D:	*D:	*D:	*D
=177	=177	=177	=177
*	*	*^	*
2.D	2.V	(8c#L	[2.A	16eLL
.	.	.	.	16ee
.	.	8B#J	.	16d#
.	.	.	.	16dd#JJ
.	.	8c#L	.	16eLL
.	.	.	.	16ee
.	.	8B#J	.	16d#
.	.	.	.	16dd#JJ
.	.	8c#L	.	16eLL
.	.	.	.	16ee
.	.	8d#J	.	16f#
.	.	.	.	16ff#JJ
=178	=178	=178	=178	=178
2.D	2.V7	8eL	2.A]	16gLL
.	.	.	.	16gg
.	.	8d#J	.	16f#
.	.	.	.	16ff#JJ
.	.	8eL	.	16gLL
.	.	.	.	16gg
.	.	8d#J	.	16f#
.	.	.	.	16ff#JJ
.	.	8eL	.	16gLL
.	.	.	.	16gg
.	.	8c#J)	.	16e
.	.	.	.	16eeJJ
=179	=179	=179	=179	=179
2.T	2.I	(8dL	2.D	16f#LL
.	.	.	.	16ff#
.	.	8c#J	.	16e#
.	.	.	.	16ee#JJ
.	.	8dL	.	16f#LL
.	.	.	.	16ff#
.	.	8c#J	.	16e#
.	.	.	.	16ee#JJ
.	.	8dL	.	16f#LL
.	.	.	.	16ff#
.	.	8eJ	.	16g
.	.	.	.	16ggJJ
=180	=180	=180	=180	=180
2.T	2.I	8f#L	2.d	16aLL
.	.	.	.	16aa
.	.	8e#J	.	16g#
.	.	.	.	16gg#JJ
.	.	8f#L	.	16aLL
.	.	.	.	16aa
.	.	8e#J	.	16g#
.	.	.	.	16gg#JJ
.	.	8f#)	.	16aLL
.	.	.	.	16aa
.	.	8r	.	16dd
.	.	.	.	16dddJJ
*	*	*v	*v	*
=181	=181	=181	=181
2P	2IV	16GGGLL	4cc# 4aa 4ccc#
.	.	16GG	.
.	.	16AAA	.
.	.	16AAJJ	.
.	.	16BBBLL	4b 4gg 4bb
.	.	16BB	.
.	.	16CC#	.
.	.	16C#JJ	.
4P	4I	16DDLL	8aL 8ff# 8aa
.	.	16D	.
.	.	16FF#	8ddJ 8aa 8ddd
.	.	16F#JJ	.
=182	=182	=182	=182
2P	2IV	16GGLL	4cc# 4aa 4ccc#
.	.	16G	.
.	.	16AA	.
.	.	16AJJ	.
.	.	16BBLL	4b 4gg 4bb
.	.	16B	.
.	.	16C#	.
.	.	16c#JJ	.
4P	4I	16DLL	8aL 8ff# 8aa
.	.	16d	.
.	.	16C#	8eeJ 8aa
.	.	16c#JJ	.
=183	=183	=183	=183
8P	8IVb	16BBLL	8ddL 8gg
.	.	16B	.
8P	8iiib	16AA	8cc#J 8ff#
.	.	16AJJ	.
8P	8iib	16GGLL	8bL 8ee
.	.	16G	.
8P	8Ib	16FF#	8aJ 8dd
.	.	16F#JJ	.
8P	8viiob	16EELL	8gL 8cc#
.	.	16E	.
8P	8I	16DD	8f#J 8dd
.	.	16DJJ	.
=184	=184	=184	=184
2.D	2.V	4AAA 4AA	8eL 8cc# 8ee
.	.	.	16c#L
.	.	.	16cc#JJ
.	.	4r	16dLL
.	.	.	16dd
.	.	.	16e
.	.	.	16eeJJ
.	.	4r	16f#LL
.	.	.	16ff#
.	.	.	16g
.	.	.	16ggJJ
*-	*-	*-	*-
!!!COM: Mozart
!!!OTL: 9 Variationen uber ein Minuett von Duport
!!!Variation: Variation 7 d
**function	**harm	**kern	**kern
*	*	*clefF2	*clefG2
*	*	*k[f#c#]	*k[f#c#]
*M3/4	*M3/4	*M3/4	*M3/4
*D:	*D:	*D:	*D
!	!exact repeat of 7a	!	!
=185	=185	=185	=185
*	*	*^	*
2.T	2.I	(8f#L	[2d	16aLL
.	.	.	.	16aa
.	.	8e#J	.	16g#
.	.	.	.	16gg#JJ
.	.	8f#L	.	16aLL
.	.	.	.	16aa
.	.	8e#J	.	16g#
.	.	.	.	16gg#JJ
.	.	8f#)	8d]	16aLL
.	.	.	.	16aa
.	.	8r	8r	16dd
.	.	.	.	16dddJJ
=186	=186	=186	=186	=186
2.T	2.I	(8AL	[2D	16f#LL
.	.	.	.	16ff#
.	.	8G#J	.	16e#
.	.	.	.	16ee#JJ
.	.	8AL	.	16f#LL
.	.	.	.	16ff#
.	.	8G#J	.	16e#
.	.	.	.	16ee#JJ
.	.	8A)	8D]	16f#LL
.	.	.	.	16ff#
*	*	*v	*v	*
.	.	8r	16a
.	.	.	16aaJJ
=187	=187	=187	=187
4T	4vi	8BB 8B	16dLL
.	.	.	16dd
.	.	8r	16f#
.	.	.	16ff#JJ
4P	4iib	8GG 8G	16eLL
.	.	.	16ee
.	.	8r	16g
.	.	.	16ggJJ
4D	4V	8AA 8A	16c#LL
.	.	.	16cc#
.	.	8r	16e
.	.	.	16eeJJ
=188	=188	=188	=188
2.T	2.I	4DD 4D	16dLL
.	.	.	16dd
.	.	.	16c#
.	.	.	16cc#JJ
.	.	4r	16dLL
.	.	.	16dd
.	.	.	16e
.	.	.	16eeJJ
.	.	4r	16f#LL
.	.	.	16ff#
.	.	.	16g
.	.	.	16ggJJ
*-	*-	*-	*-
!!!COM: Mozart
!!!OTL: 9 Variationen uber ein Minuett von Duport
!!!Variation: Variation 7 e
**function	**harm	**kern	**kern
*	*	*clefF2	*clefG2
*	*	*k[f#c#]	*k[f#c#]
*M3/4	*M3/4	*M3/4	*M3/4
*D:	*D:	*D:	*D
!	!exact repeat of 7b	!	!
=189	=189	=189	=189
2.T	2.I	16DLL	(2a 2ff# 2aa
.	.	16d	.
.	.	16F#	.
.	.	16f#JJ	.
.	.	16ELL	.
.	.	16e	.
.	.	16D	.
.	.	16dJJ	.
.	.	16C#LL	8dd) 8ff# 8ddd
.	.	16c#	.
.	.	16BB	8r
.	.	16BJJ	.
=190	=190	=190	=190
2.T	2.I	16AALL	(2f# 2dd 2ff#
.	.	16A	.
.	.	16GG	.
.	.	16GJJ	.
.	.	16FF#LL	.
.	.	16F#	.
.	.	16EE	.
.	.	16EJJ	.
.	.	16DDLL	8a) 8ff# 8aa
.	.	16D	.
.	.	16CC#	8r
.	.	16C#JJ	.
=191	=191	=191	=191
4P	4IVb	8BBB 8BB	16r
.	.	.	(16gLL
.	.	8r	16dd
.	.	.	16ggJJ)
4D	4Ic	8AAA 8AA	16r
.	.	.	(16aLL
.	.	8r	16dd
.	.	.	16ff#JJ)
4D	4V7	8AAA	16r
.	.	.	(16gLL
.	.	8r	16cc#
.	.	.	16eeJJ)
=192	=192	=192	=192
2.T	2.I	16r	4f# 4dd
.	.	(16DLL	.
.	.	16F#	.
.	.	16DJJ	.
.	.	16AALL	4r
.	.	16D	.
.	.	16FF#	.
.	.	16AAJJ	.
.	.	8DD)	4r
.	.	8r	.
*-	*-	*-	*-
!!!COM: Mozart
!!!OTL: 9 Variationen uber ein Minuett von Duport
!!!Variation: Variation 8 a
**function	**harm	**kern	**kern
*	*	*clefG2	*clefG2
*	*	*k[f#c#]	*k[f#c#]
*M3/4	*M3/4	*M3/4	*M3/4
*D:	*D:	*D:	*D
=193	=193	=193	=193
2.T	2.I	4d 4f#	([4aa
.	.	4r	32aaLLL]
.	.	.	32bb
.	.	.	32aa
.	.	.	32gg#JJ
.	.	.	32aaLL
.	.	.	32ddd
.	.	.	32ccc#
.	.	.	32eeeJJJ
.	.	4r	8ddd)
.	.	.	8r
=194	=194	=194	=194
2.T	2.I	4d 4a	([4ff#
.	.	4r	32ff#LLL]
.	.	.	32gg
.	.	.	32ff#
.	.	.	32eeJJ
.	.	.	32ff#LL
.	.	.	32aa
.	.	.	32gg
.	.	.	32bbJJJ
.	.	4r	8aa)
.	.	.	8r
=195	=195	=195	=195
2D	2Cc	4A 4f#	4dd
.	.	(8A'L 8f#'	(8dd'L
.	.	8A'J 8f#'	8dd'J)
.	.	.	(q64ff#
4D	4V7	8A'L 8g'	(16.eeLL)
.	.	.	32ddk
.	.	8A'J) 8g'	16.ee
.	.	.	32ff#JJk
=196	=196	=196	=196
2.T	2.I	16d 16f#	16ddLL)
.	.	16r	(32dL
.	.	.	32f#JJ
.	.	8r	32eLL
.	.	.	32g
.	.	.	32f#
.	.	.	32aJJJ
.	.	4r	32gLLL
.	.	.	32b
.	.	.	32a
.	.	.	32cc#JJ
.	.	.	32bLL
.	.	.	32dd
.	.	.	32cc#
.	.	.	32eeJJJ
.	.	4r	32ddLLL
.	.	.	32ff#
.	.	.	32ee
.	.	.	32ggJJ
.	.	.	32ff#LL
.	.	.	32aa
.	.	.	32gg
.	.	.	32bbJJJ)
*-	*-	*-	*-
!!!COM: Mozart
!!!OTL: 9 Variationen uber ein Minuett von Duport
!!!Variation: Variation 8 b
**function	**harm	**kern	**kern
*	*	*clefG2	*clefG2
*	*	*k[f#c#]	*k[f#c#]
*M3/4	*M3/4	*M3/4	*M3/4
*D:	*D:	*D:	*D
=197	=197	=197	=197
2.T	2.I	8r	([4aa
.	.	(8d' 8f#'	.
.	.	8d') 8f#'	16aaLL]
.	.	.	16bb
.	.	8r	16ccc#
.	.	.	16dddJJ
.	.	4r	16eeeLL
.	.	.	16ddd
.	.	.	16ccc#
.	.	.	16dddJJ)
=198	=198	=198	=198
2.T	2.I	8r	([4ff#
.	.	(8d' 8a'	.
.	.	8d') 8a'	16ff#LL]
.	.	.	16gg
.	.	8r	16gg#
.	.	.	16aaJJ
.	.	4r	16bbLL
.	.	.	16aa
.	.	.	16gg#
.	.	.	16aaJJ)
=199	=199	=199	=199
*	*	*^	*
2D	2Cc	4f#	4A	(8.aaL
.	.	.	.	16ff#Jk
.	.	(8f#'L	2A	8ddL)
.	.	8f#'J	.	8ddJ
.	.	.	.	(q64ff#
4D	4V7	8g'L	.	(16.eeLL)
.	.	.	.	32ddk
.	.	8g'J)	.	16.ee
.	.	.	.	32ff#JJk
=200	=200	=200	=200	=200
2.T	2.I	(4g	[4d	4ee
.	.	8f#)	8d]	8dd)
*	*	*v	*v	*
*	*	*clefF4	*
.	.	(16G#LL	8r
.	.	32AJJk)	.
.	.	32r	.
.	.	(16E#LL	4r
.	.	32F#JJk)	.
.	.	32r	.
.	.	(16C#LL	.
.	.	32DJJk)	.
.	.	32r	.
=	=	=	=
*-	*-	*-	*-
!!!COM: Mozart
!!!OTL: 9 Variationen uber ein Minuett von Duport
!!!Variation: Variation 8 c
**function	**harm	**kern	**kern
*	*	*clefF4	*clefG2
*	*	*k[f#c#]	*k[f#c#]
*M3/4	*M3/4	*M3/4	*M3/4
*D:	*D:	*D:	*D
=201	=201	=201	=201
2D	2V	8AAL	[4ee
.	.	8AJ 8c#	.
.	.	8AL 8c#	16eeLL]
.	.	.	(16ee
.	.	8AJ 8c#	16gg
.	.	.	16ff#JJ)
4D	4Ic	8AL 8d	16ff#'LL
.	.	.	(16ff#
.	.	8AJ 8d	16aa
.	.	.	16ggJJ)
=202	=202	=202	=202
2.D	2.V7	8A 8e	8gg
.	.	8r	8r
.	.	4r	32r
.	.	.	(32ALLL
.	.	.	32B
.	.	.	32c#JJ
.	.	.	64dLLL
.	.	.	64e
.	.	.	64f#
.	.	.	64g#
.	.	.	64a
.	.	.	64b
.	.	.	64cc#
.	.	.	64ddJJJJ
.	.	4r	56eeLLL
.	.	.	56ff#
.	.	.	56gg#
.	.	.	56aa
.	.	.	56bb
.	.	.	56ccc#
.	.	.	56dddJJ
.	.	.	48eee'LL
.	.	.	48ddd'
.	.	.	48ccc#'
.	.	.	48bb'
.	.	.	48aa'
.	.	.	48gg'JJJ)
=203	=203	=203	=203
2T	2I	8DL	[4ff#
*	*	*clefG2	*
.	.	8dJ	.
.	.	8dL 8f#	24ff#LL]
.	.	.	(24dd
.	.	.	24eeJ
.	.	8dJ 8f#	24ff#L
.	.	.	24gg
.	.	.	24aaJJ
4T	4ii7d	8dL 8e 8g	24ggLL
.	.	.	24ee
.	.	.	24ff#J
.	.	8dJ 8e 8g	24ggL
.	.	.	24aa
.	.	.	24bbJJ
=204	=204	=204	=204
2.T	2.I	8d 8f# 8a	8aaL)
.	.	8r	[8dJ
*	*	*clefF4	*
.	.	4D	(8dL]
.	.	.	64eLLL
.	.	.	64d
.	.	.	64c#
.	.	.	64d
.	.	.	64e
.	.	.	64f#
.	.	.	64g
.	.	.	64aJJJJ
.	.	4r	64bLLLL
.	.	.	64cc#
.	.	.	64dd
.	.	.	64ee
.	.	.	64ff#
.	.	.	64gg
.	.	.	64aa
.	.	.	64bbJJJ
.	.	.	64ccc#LLL
.	.	.	64ddd
.	.	.	64ccc#
.	.	.	64ddd
.	.	.	64eee
.	.	.	64ddd
.	.	.	64ccc#
.	.	.	64bbJJJJ)
*	*	*clefG2	*
=205	=205	=205	=205
*	*	*^	*
2T	2I	8r	2.d	([4aa
.	.	8f# 8a	.	.
.	.	8f#L 8a	.	16aaLL]
.	.	.	.	16dd
.	.	8f#J 8a	.	16ff#
.	.	.	.	16aaJJ
4T	4IVc	8gL 8b	.	16bbLL
.	.	.	.	16gg
.	.	8gJ 8b	.	16ddd
.	.	.	.	16bbJJ)
=206	=206	=206	=206	=206
2T	2I	8r	2.d	(8gg#L
.	.	8f# 8a	.	[8aaJ
.	.	8f#L 8a	.	48aaLLL])
.	.	.	.	(48dd
.	.	.	.	48dd#JJ
.	.	.	.	48eeLL
.	.	.	.	48ff
.	.	.	.	48ff#JJ
.	.	8f#J 8a	.	32ggLL
.	.	.	.	32gg#
.	.	.	.	32aa
.	.	.	.	32bb-JJJ
4T	4IVc	8gL 8b	.	48bbLLL
.	.	.	.	48ccc
.	.	.	.	48ccc#JJ
.	.	.	.	32dddLL
.	.	.	.	32ccc#JJ
.	.	8gJ 8b	.	32eeeLL
.	.	.	.	32ddd
.	.	.	.	32ccc#
.	.	.	.	32bbJJJ)
*	*	*v	*v	*
=207	=207	=207	=207
4T	4I	8f# 8a 8d	(32bbLLL
.	.	.	32aa)
.	.	.	32ddd'
.	.	.	32ccc#'JJ
.	.	8r	32ddd'LL
.	.	.	32ccc#'
.	.	.	32bb'
.	.	.	32aa'JJJ
4T	4V7b	8a 8c#	(32aaLLL
.	.	.	32gg)
.	.	.	32eee'
.	.	.	32ddd'JJ
.	.	8r	32ccc#'LL
.	.	.	32bb'
.	.	.	32aa'
.	.	.	32gg'JJJ
4T	4I	8a 8d	(32ggLLL
.	.	.	32ff#)
.	.	.	32ddd'
.	.	.	32ccc#'JJ
.	.	8r	32bb'LL
.	.	.	32aa'
.	.	.	32gg'
.	.	.	32ff#'JJJ
=208	=208	=208	=208
*	*	*^	*
2D	2Cc	([4f#	[2A	([4aa
.	.	8.f#L]	.	16aaLL]
.	.	.	.	32gg#L
.	.	.	.	32aaJJ
.	.	.	.	32bbLL
.	.	.	.	32aa
.	.	16dJk	.	32gg
.	.	.	.	32ff#JJJ
4D	4V	8c#)	8A]	16eeLL)
.	.	.	.	(16ff#'
*	*	*v	*v	*
.	.	8r	16gg'
.	.	.	16gg#'JJ)
*-	*-	*-	*-
!!!COM: Mozart
!!!OTL: 9 Variationen uber ein Minuett von Duport
!!!Variation: Variation 8 d
**function	**harm	**kern	**kern
*	*	*clefG2	*clefG2
*	*	*k[f#c#]	*k[f#c#]
*M3/4	*M3/4	*M3/4	*M3/4
*D:	*D:	*D:	*D
=209	=209	=209	=209
2.T	2.I	8r	[4aa
.	.	(8d' 8f#'	.
.	.	8d') 8f#'	(24aaLL]
.	.	.	24bb-
.	.	.	24bbJ
.	.	8r	24cccL
.	.	.	24ccc#
.	.	.	24dddJJ)
.	.	4r	(16eeeLL
.	.	.	16ddd
.	.	.	16ccc#
.	.	.	16dddJJ)
=210	=210	=210	=210
.	.	.	(q64ddd
2.T	2.I	8r	[4ff#)
.	.	(8d' 8a'	.
.	.	8d') 8a'	(24ff#LL]
.	.	.	24ff#
.	.	.	24ggJ
.	.	8r	24gg#L
.	.	.	24aa
.	.	.	24aa#JJ)
.	.	4r	(16bbLL
.	.	.	16aa
.	.	.	16gg#
.	.	.	16aaJJ)
=211	=211	=211	=211
2D	2Cc	4f# 4A	8aaL
.	.	.	(32aaLL
.	.	.	32ff#)
.	.	.	(32aa
.	.	.	32ff#JJJ)
*	*	*^	*
.	.	(8f#'L	2A	(8dd'L
.	.	8f#'J	.	8dd'J)
4D	4V7	8g'L	.	(16.eeLL)
.	.	.	.	32dd#k
.	.	8g'J)	.	16.ee
.	.	.	.	32ff#JJk
*	*	*v	*v	*
*	*	*clefF4	*
=212	=212	=212	=212
2.T	2.I	32r	4f#) 4dd
.	.	(32DDLLL	.
.	.	32EE	.
.	.	32FF#JJ	.
.	.	32GGLL	.
.	.	32AA	.
.	.	32BB	.
.	.	32C#JJJ	.
.	.	32D)	32r
.	.	32r	(32ELLL
.	.	16r	32F#
.	.	.	32GJJ
.	.	8r	32ALL
.	.	.	32B
.	.	.	32c#
.	.	.	32dJJJ
.	.	4r	32eLLL
.	.	.	32f#
.	.	.	32g
.	.	.	32aJJ
.	.	.	48bLL
.	.	.	48cc#
.	.	.	48ddJJ
.	.	.	48eeLL
.	.	.	48ff#
.	.	.	48ggJJJ)
*-	*-	*-	*-
!!!COM: Mozart
!!!OTL: 9 Variationen uber ein Minuett von Duport
!!!Variation: Variation 8 e
**function	**harm	**kern	**kern
*	*	*clefF2	*clefG2
*	*	*k[f#c#]	*k[f#c#]
*M3/4	*M3/4	*M3/4	*M3/4
*D:	*D:	*D:	*D
=213	=213	=213	=213
2.T	2.I	32r	[2ff# [2aa
.	.	(32DLLL	.
.	.	32E	.
.	.	32F#JJ	.
.	.	32GLL	.
.	.	32A	.
.	.	32B	.
.	.	32c#JJJ	.
.	.	32dLLL	.
.	.	32e	.
.	.	32f#	.
.	.	32gJJ	.
.	.	32aLL	.
.	.	32b	.
.	.	32cc#	.
.	.	32ddJJJ	.
.	.	8d)	16ff#] 16aa]
.	.	.	(32ggLLL
.	.	.	32bbJJ
.	.	8r	32eeLL
.	.	.	32ccc#
.	.	.	32ff#
.	.	.	32dddJJJ)
=214	=214	=214	=214
2.T	2.I	32r	[2dd [2ff#
.	.	(32DDLLL	.
.	.	32EE	.
.	.	32FF#JJ	.
.	.	32GGLL	.
.	.	32AA	.
.	.	32BB	.
.	.	32C#JJJ	.
.	.	32DLLL	.
.	.	32E	.
.	.	32F#	.
.	.	32GJJ	.
.	.	32ALL	.
.	.	32B	.
.	.	32c#	.
.	.	32dJJJ	.
.	.	8D)	16dd] 16ff#]
.	.	.	(32eeLLL
.	.	.	32ggJJ
.	.	8r	32ee#LL
.	.	.	32gg#
.	.	.	32ff#
.	.	.	32aaJJJ)
=215	=215	=215	=215
*	*	*^	*
4D	4Cc	4r	2A	24a'LL
.	.	.	.	24ddd
.	.	.	.	24ccc#J
.	.	.	.	(24cccL
.	.	.	.	24bb
.	.	.	.	24bb-JJ
2D	2V7	4e 4g	.	32aaLLL
.	.	.	.	32gg#
.	.	.	.	32gg
.	.	.	.	32ff#JJ
.	.	.	.	24ffL
.	.	.	.	24ee
.	.	.	.	24ee-JJ
.	.	8e 8g	8A	16ddLL
.	.	.	.	16cc#
*	*	*v	*v	*
.	.	8r	16ggJJ)
.	.	.	32r
.	.	.	32cc#
=216	=216	=216	=216
2.T	2.I	2DD 2D	(4g 4ee
.	.	.	4f#) 4dd
.	.	4r	4r
*-	*-	*-	*-
!!!COM: Mozart
!!!OTL: 9 Variationen uber ein Minuett von Duport
!!!Variation: Variation 9 a
**function	**harm	**kern	**kern
*	*	*clefG2	*clefG2
*	*	*k[f#c#]	*k[f#c#]
*D:	*D:	*D:	*D
*M2/4	*M2/4	*M2/4	*M2/4
=217	=217	=217	=217
2T	2I	8d'L 8f#'	8aa'L
.	.	(8f#J	(8aaJ
.	.	8gL	8bbL
.	.	8eJ)	8ggJ)
=218	=218	=218	=218
2T	2I	8d'L 8a'	8ff#'L
.	.	(8aJ	(8ff#J
.	.	8bL	8ggL
.	.	8gJ)	8eeJ)
=219	=219	=219	=219
4T	4I	8d'L 8f#'	8dd'L
.	.	8d'J 8f#'	8dd'J
*	*	*clefF4	*
4D	4V	8A'L 8c#'	8ee'L
.	.	8A'J 8c#'	8ee'J
=220	=220	=220	=220
2T	2I	4d	(8ee#L
.	.	.	8ff#J)
.	.	4r	8dd'L
.	.	.	8a'J
*-	*-	*-	*-
!!!COM: Mozart
!!!OTL: 9 Variationen uber ein Minuett von Duport
!!!Variation: Variation 9 b
**function	**harm	**kern	**kern
*	*	*clefF4	*clefG2
*	*	*k[f#c#]	*k[f#c#]
*D:	*D:	*D:	*D
*M2/4	*M2/4	*M2/4	*M2/4
=221	=221	=221	=221
2T	2I	(16DLL	8aa
.	.	16d	.
.	.	16F#	4ddd
.	.	16dJJ	.
.	.	16ALL	.
.	.	16d	.
.	.	16c#	8ff#
.	.	16dJJ	.
=222	=222	=222	=222
2T	2I	16DLL	8ff#
.	.	16d	.
.	.	16F#	4aa
.	.	16dJJ	.
.	.	16ALL	.
.	.	16d	.
.	.	16c#	8dd
.	.	16dJJ	.
=223	=223	=223	=223
4D	4Cc	16BLL	8ff#L
.	.	16f#	.
.	.	16d	8ff#J
.	.	16f#JJ	.
.	.	.	(q64ff#
4D	4V7	16ALL	(16eeLL)
.	.	16g	16dd
.	.	16c#	16ee
.	.	16gJJ	16ff#JJ
=224	=224	=224	=224
2T	2I	8dL) 8f#	4dd)
.	.	8AJ	.
.	.	8D	4r
.	.	8r	.
*-	*-	*-	*-
!!!COM: Mozart
!!!OTL: 9 Variationen uber ein Minuett von Duport
!!!Variation: Variation 9 c
**function	**harm	**kern	**kern
*	*	*clefF4	*clefG2
*	*	*k[f#c#]	*k[f#c#]
*D:	*D:	*D:	*D
*M2/4	*M2/4	*M2/4	*M2/4
=225	=225	=225	=225
4D	4V	4GG 4G	4a 4cc# 4ee
4D	4Ib	4FF# 4F#	4a 4dd 4ff#
=226	=226	=226	=226
2D	2V7	4CC# 4C#	4a 4ee 4gg
.	.	4r	8r
.	.	.	16r
.	.	.	16ee
*	*	*clefG2	*
=227	=227	=227	=227
4T	4I	8dL 8f#	16ff#LL
.	.	.	16cc#
.	.	8dJ 8f#	16dd
.	.	.	16ff#JJ
4T	4ii	8eL 8g	16ggLL
.	.	.	16dd#
.	.	8eJ 8g	16ee
.	.	.	16ggJJ
=228	=228	=228	=228
2T	2Ib	4f# 4a	8.aa
.	.	.	16r
.	.	4r	8r
.	.	.	(16dddLL
.	.	.	16ccc#JJ)
=229	=229	=229	=229
2T	2I	2r	(16ccc#LL
.	.	.	16bb)
.	.	.	(16bb
.	.	.	16aaJJ)
.	.	.	(16aaLL
.	.	.	16gg)
.	.	.	(16gg
.	.	.	16ff#JJ)
=230	=230	=230	=230
4.T	4.viiom7c	4.g 4.cc#	(4.bb
8T	8Ib	8f# 8dd	8aa)
=231	=231	=231	=231
8P	8V7/V	8eL 8dd	8gg#L
8P	8V7	8aJ 8cc#	8ggJ
8P	8vi	8bL 8dd	8ff#L
8P	8viioD7/V	8g#J 8dd	8ffJ
=232	=232	=232	=232
2D	2V	4a 4cc#	(8eeL
.	.	.	8ff#J
.	.	4r	8ggL
.	.	.	8gg#J
*-	*-	*-	*-
!!!COM: Mozart
!!!OTL: 9 Variationen uber ein Minuett von Duport
!!!Variation: Variation 9 d
**function	**harm	**kern	**kern
*	*	*clefG2	*clefG2
*	*	*k[f#c#]	*k[f#c#]
*D:	*D:	*D:	*D
*M2/4	*M2/4	*M2/4	*M2/4
!	!exact repeat of 9a	!	!
=233	=233	=233	=233
2T	2I	8d'L 8f#'	8aa'L)
.	.	(8f#J	(8aaJ
.	.	8gL	8bbL
.	.	8eJ)	8ggJ)
=234	=234	=234	=234
2T	2I	8d'L 8a'	8ff#'L
.	.	(8aJ	(8ff#J
.	.	8bL	8ggL
.	.	8gJ)	8eeJ)
=235	=235	=235	=235
4T	4I	8d'L 8f#'	8dd'L
.	.	8d'J 8f#'	8dd'J
*	*	*clefF4	*
4D	4V	8A'L 8c#'	8ee'L
.	.	8A'J 8c#'	8ee'J
=236	=236	=236	=236
2T	2I	4d	(8ee#L
.	.	.	8ff#J)
.	.	4r	8dd'L
.	.	.	8a'J
*-	*-	*-	*-
!!!COM: Mozart
!!!OTL: 9 Variationen uber ein Minuett von Duport
!!!Variation: Variation 9 e
**function	**harm	**kern	**kern
*	*	*clefF4	*clefG2
*	*	*k[f#c#]	*k[f#c#]
*D:	*D:	*D:	*D
*M2/4	*M2/4	*M2/4	*M2/4
!	!exact repeat of 9b	!	!
=237	=237	=237	=237
2T	2I	(16DLL	8aa
.	.	16d	.
.	.	16F#	4ddd
.	.	16dJJ	.
.	.	16ALL	.
.	.	16d	.
.	.	16c#	8ff#
.	.	16dJJ	.
=238	=238	=238	=238
2T	2I	16DLL	8ff#
.	.	16d	.
.	.	16F#	4aa
.	.	16dJJ	.
.	.	16ALL	.
.	.	16d	.
.	.	16c#	8dd
.	.	16dJJ	.
=239	=239	=239	=239
4D	4Cc	16BLL	8ff#L
.	.	16f#	.
.	.	16d	8ff#J
.	.	16f#JJ	.
.	.	.	(q64ff#
4D	4V7	16ALL	(16eeLL)
.	.	16g	16dd
.	.	16c#	16ee
.	.	16gJJ	16ff#JJ
=240	=240	=240	=240
2T	2I	8dL) 8f#	4dd)
.	.	8AJ	.
.	.	8D	4r
.	.	8r	.
*-	*-	*-	*-
!!!COM: Mozart
!!!OTL: 9 Variationen uber ein Minuett von Duport
!!!Variation: Variation 9 coda
**function	**harm	**kern	**kern
*	*	*clefF4	*clefG2
*	*	*k[f#c#]	*k[f#c#]
*D:	*D:	*D:	*D
*M2/4	*M2/4	*M2/4	*M2/4
=241	=241	=241	=241
2T	2V7b/IV	8F#L 8d	8cc'L
.	.	8F#J 8d	8cc'J
.	.	8F#L 8d	(16ccLL
.	.	.	16b
.	.	8F#J 8d	16cc
.	.	.	16ddJJ
=242	=242	=242	=242
2P	2IV	4G 4d	4b)
.	.	4r	4r
=243	=243	=243	=243
2P	2Ic	8AL 8d	8a'L
.	.	8AJ 8d	8a'J
.	.	8AL 8d	(16aLL
.	.	.	16g#
.	.	8AJ 8d	16a
.	.	.	16bJJ
=244	=244	=244	=244
2P	2viiob/V	4B 4d	4g#)
.	.	4r	4r
=245	=245	=245	=245
2P	2ivb	2B- 2d 2g	8gg'L
.	.	.	8gg'J
.	.	.	(16ggLL
.	.	.	16ff#
.	.	.	16gg
.	.	.	16aaJJ)
=246	=246	=246	=246
4.D	4.V7	4A 4c# 4g	16ggLL
.	.	.	16ee
.	.	.	16gg
.	.	.	16ccc#JJ
.	.	8r	16eeeLL
.	.	.	16gg
8D	8ivb	8BB- 8B-	16ddd
.	.	.	16ggJJ
=247	=247	=247	=247
4.D	4.V7	4.AA 4.A	16eeeLL
.	.	.	16gg
.	.	.	16ee
.	.	.	16ggJJ
.	.	.	16eeeLL
.	.	.	16gg
8D	8ivb	8BB- 8B-	16ddd
.	.	.	16ggJJ
=248	=248	=248	=248
4.D	4.V7	4.AA 4.A	16ccc#LL
.	.	.	16gg
.	.	.	16ee
.	.	.	16ggJJ
.	.	.	16eeeLL
.	.	.	16gg
8D	8ivb	8BB- 8B-	16ddd
.	.	.	16ggJJ
=249	=249	=249	=249
8D	8V7	8AAL 8A	16ccc#LL
.	.	.	16gg
8D	8ivb	8BB-J 8B-	16ddd
.	.	.	16ggJJ
8D	8V7	8AAL 8A	16ccc#LL
.	.	.	16gg
8D	8ivb	8BB-J 8B-	16ddd
.	.	.	16ggJJ
=250	=250	=250	=250
2D	2V7	[2A	16ccc#LL
.	.	.	16aa
.	.	.	16eee
.	.	.	16ggJJ
.	.	.	16ff#LL
.	.	.	16aa
.	.	.	16eee
.	.	.	16dddJJ
=251	=251	=251	=251
2D	2V7	2A]	16eeLL
.	.	.	16gg
.	.	.	16ddd
.	.	.	16ccc#JJ
.	.	.	16ddLL
.	.	.	16ff#
.	.	.	16ccc#
.	.	.	16bbJJ
=252	=252	=252	=252
2D	2V7	[2AA	16cc#LL
.	.	.	16ee
.	.	.	16bb
.	.	.	16aaJJ
.	.	.	16bLL
.	.	.	16dd
.	.	.	16aa
.	.	.	16ggJJ
=253	=253	=253	=253
2D	2V7	2AA_	16aLL
.	.	.	16cc#
.	.	.	16gg
.	.	.	16ff#JJ
.	.	.	16gLL
.	.	.	16b
.	.	.	16ff#
.	.	.	16eeJJ
=254	=254	=254	=254
2D	2V7	2AA_	16f#LL
.	.	.	16a
.	.	.	16ee
.	.	.	16ddJJ
.	.	.	16eLL
.	.	.	16g
.	.	.	16dd
.	.	.	16cc#JJ
=255	=255	=255	=255
2D	2V7	2AA]	16dLL
.	.	.	16f#
.	.	.	16cc#
.	.	.	16bJJ
.	.	.	16c#LL
.	.	.	16e
.	.	.	16b
.	.	.	16aJJ
*	*	*clefG2	*
=256	=256	=256	=256
2D	2viioD7b/V	8r	16BLL
.	.	.	16d
.	.	(8dd	16f
.	.	.	16g#JJ
.	.	8eeL	16eLL
.	.	.	16g#
.	.	8ffJ)	16d
.	.	.	16g#JJ
=257	=257	=257	=257
2D	2viioD7b/V	8r	16BLL
.	.	.	16d
.	.	(8dd	16f
.	.	.	16g#JJ
.	.	8eeL	16eLL
.	.	.	16g#
.	.	8ffJ)	16d
.	.	.	16g#JJ
=258	=258	=258	=258
2D	2viioD7b/V	8r	16BLL
.	.	.	16d
.	.	(8dd	16f
.	.	.	16g#JJ
.	.	8eeL	16eLL
.	.	.	16g#
.	.	8ffJ)	16d
.	.	.	16g#JJ
=259	=259	=259	=259
2D	2viioD7b/V	(8ffL	16dLL
.	.	.	16g#
.	.	8eeJ)	16e
.	.	.	16g#JJ
.	.	(8eeL	16eLL
.	.	.	16g#
.	.	8ddJ)	16f
.	.	.	16g#JJ
*	*	*clefF4	*
=260	=260	=260	=260
2D	2viioD7	8r	16c#LL
.	.	.	16e
.	.	(8EE	16g
.	.	.	16b-JJ
.	.	8DDL	16fLL
.	.	.	16b-
.	.	8CC#J)	16e
.	.	.	16b-JJ
=261	=261	=261	=261
2D	2viioD7	8r	16c#LL
.	.	.	16e
.	.	(8EE	16g
.	.	.	16b-JJ
.	.	8DDL	16fLL
.	.	.	16b-
.	.	8CC#J)	16e
.	.	.	16b-JJ
=262	=262	=262	=262
2D	2viioD7	(8CC#L	16eLL
.	.	.	16b-
.	.	8DDJ)	16d
.	.	.	16b-JJ
.	.	(8DDL	16dLL
.	.	.	16b-
.	.	8EEJ)	16c#
.	.	.	16b-JJ
=263	=263	=263	=263
2D	2viioD7	4EE	4c#
.	.	4DD	4r
=264	=264	=264	=264
2D	2viioD7	4CC#	2r
.	.	4BBB-	.
*	*	*	*clefF4
=265	=265	=265	=265
*19/8	*19/8	*M19/8	*M19/8
1D	1V7	1AAA 1CC# 1EE 1GG	2AAA;
.	.	.	(64AALLLL
.	.	.	64C#
.	.	.	64BB
.	.	.	64D
.	.	.	64C#
.	.	.	64E
.	.	.	64D
.	.	.	64F#JJJ
.	.	.	64ELLL
.	.	.	64Gn
.	.	.	64F#
.	.	.	64A
.	.	.	64G
.	.	.	64B
.	.	.	64A
.	.	.	64c#JJJJ
*	*	*	*clefG2
.	.	.	64BLLLL
.	.	.	64d
.	.	.	64c#
.	.	.	64e
.	.	.	64d
.	.	.	64f#
.	.	.	64e
.	.	.	64gJJJ
.	.	.	64f#LLL
.	.	.	64a
.	.	.	64g
.	.	.	64b
.	.	.	64a
.	.	.	64cc#
.	.	.	64b
.	.	.	64ddJJJ
1D	1V7	4r	64cc#LLL
.	.	.	64ee
.	.	.	64dd
.	.	.	64ff#
.	.	.	64ee
.	.	.	64gg
.	.	.	64ff#
.	.	.	64aaJJJJ)
.	.	.	2gg
.	.	4r	.
.	.	2.r	.
.	.	.	2gg#
4.D	4.V7	.	.
.	.	.	q32ff#
.	.	.	q32gg#
.	.	.	(8.bbL
.	.	8r	.
.	.	.	16aaJk)
*-	*-	*-	*-
!!!COM: Mozart
!!!OTL: 9 Variationen uber ein Minuett von Duport
!!!Variation: Variation 9 a2
**function	**harm	**kern	**kern
*	*	*clefG2	*clefG2
*	*	*k[f#c#]	*k[f#c#]
*M3/4	*M3/4	*M3/4	*M3/4
*D:	*D:	*D:	*D
=266	=266	=266	=266
*	*	*^	*
2.T	2.I	(8f#L	2.d	(2aa
.	.	8aJ	.	.
.	.	8f#L	.	.
.	.	8aJ	.	.
.	.	.	.	q32bb
.	.	.	.	q32aa
.	.	.	.	q32gg#
.	.	.	.	q32aa
.	.	8f#L	.	8.dddL
.	.	8aJ	.	.
.	.	.	.	16aaJk)
=267	=267	=267	=267	=267
2.T	2.I	8f#L	2.d	(2ff#
.	.	8aJ	.	.
.	.	8f#L	.	.
.	.	8aJ	.	.
.	.	.	.	q32gg
.	.	.	.	q32ff#
.	.	.	.	q32ee
.	.	.	.	q32ff#
.	.	8f#L	.	8.aaL
.	.	8aJ	.	.
.	.	.	.	16ff#Jk)
=268	=268	=268	=268	=268
2D	2Cc	8f#L	2.A	4dd
.	.	8aJ	.	.
.	.	8f#L	.	4dd
.	.	8aJ	.	.
4D	4V7	8c#L 8g	.	(8.eeL
.	.	8aJ	.	.
.	.	.	.	32ddLL
.	.	.	.	32eeJJJ
=269	=269	=269	=269	=269
2.T	2.I	4f#)	4d	8ee#L
.	.	.	.	16ff#Jk)
.	.	.	.	16r
.	.	4r	4r	(8cc#L
.	.	.	.	16ddJk)
.	.	.	.	16r
.	.	4r	4r	(8g#L
.	.	.	.	16aJk)
.	.	.	.	16r
*	*	*v	*v	*
*-	*-	*-	*-
!!!COM: Mozart
!!!OTL: 9 Variationen uber ein Minuett von Duport
!!!Variation: Variation 9 coda2
**function	**harm	**kern	**kern
*	*	*clefG2	*clefG2
*	*	*k[f#c#]	*k[f#c#]
*M3/4	*M3/4	*M3/4	*M3/4
*D:	*D:	*D:	*D
=270	=270	=270	=270
2.T	2.I	4d 4f#	(8aa'L
.	.	.	8aa#'J
.	.	4r	8bb'L
.	.	.	8ccc#'J)
.	.	4r	(8eeeL
.	.	.	16dddJk)
.	.	.	16r
=271	=271	=271	=271
2.T	2.I	4d 4a	(8ee#'L
.	.	.	8ff#'J
.	.	4r	8gg'L
.	.	.	8gg#'J)
.	.	4r	(8bbL
.	.	.	16aaJk)
.	.	.	16r
=272	=272	=272	=272
*	*	*^	*
2D	2Cc	(8f#L	2.A	(8.aaL
.	.	8aJ	.	.
.	.	.	.	16ddJk)
.	.	8f#L	.	8dd
.	.	8aJ	.	8r
4D	4V7	8c#L 8g	.	(16eeLL
.	.	.	.	16dd
.	.	8aJ	.	16ee
.	.	.	.	16ff#JJ)
=273	=273	=273	=273	=273
2.T	2.I	4f#)	4d	4dd
.	.	4r	4r	16r
.	.	.	.	16ddd'LL
.	.	.	.	16ccc#'
.	.	.	.	16bb'JJ
.	.	4r	4r	16aa'LL
.	.	.	.	16gg'
.	.	.	.	16ff#'
.	.	.	.	16ee'JJ
=274	=274	=274	=274	=274
2D	2Ic	(8f#L	2.A	4dd
.	.	8aJ	.	.
.	.	8f#L	.	4dd
.	.	8aJ	.	.
4D	4V7	8c#L 8g	.	(16.eeLL
.	.	.	.	32ddk
.	.	8aJ	.	16ee
.	.	.	.	16ff#JJ
=275	=275	=275	=275	=275
2.T	2.I	4f#)	4d	4dd)
.	.	4r	4r	16r
.	.	.	.	(32dddLLL
.	.	.	.	32ccc#JJ
.	.	.	.	32bbLL
.	.	.	.	32aa
.	.	.	.	32gg
.	.	.	.	32ff#JJJ
.	.	4r	4r	32eeLLL
.	.	.	.	32dd
.	.	.	.	32cc#
.	.	.	.	32bJJ
.	.	.	.	32aLL
.	.	.	.	32g
.	.	.	.	32f#
.	.	.	.	32eJJJ
=276	=276	=276	=276	=276
*	*	*clefF4	*clefF4	*
2D	2Ic	(8F#L	2.AA	4d)
.	.	8AJ	.	.
.	.	8F#L	.	4d
.	.	8AJ	.	.
4D	4V7	8GL	.	(16c#LL 16e
.	.	.	.	16d
.	.	8AJ	.	16e
.	.	.	.	16f#JJ
*	*	*v	*v	*
=277	=277	=277	=277
2T	2I	4F#) 4D	4d)
.	.	4r	4r
4T	4V	4AA 4A	4ee 4ccc#
=278	=278	=278	=278
2.T	2.I	4DD 4D	4dd 4ff# 4ddd
.	.	4r	4r
.	.	4r	4r
==	==	==	==
*-	*-	*-	*-
